;FLAVOR:Marlin
;TIME:13579
;Filament used: 11.8778m
;Layer height: 0.2
;MINX:102.739
;MINY:74.336
;MINZ:0.36
;MAXX:197.314
;MAXY:225.665
;MAXZ:4.11
;Generated with Cura_SteamEngine 4.5.0
M140 S70
M105
M190 S70
M104 S200
M105
M109 S200
M82 ;absolute extrusion mode

G92 E0
G92 E0
G1 F2700 E-10
;LAYER_COUNT:14
;LAYER:-6
M107
M204 S500
G0 F9000 X106.737 Y81.157 Z0.36
;TYPE:SUPPORT-INTERFACE
G1 F2700 E0
G1 F1125 X106.85 Y81.009 E0.0223
G1 X107.426 Y80.318 E0.13001
G1 X107.527 Y80.205 E0.14816
G1 X108.152 Y79.556 E0.25604
G1 X108.277 Y79.436 E0.27679
G1 X108.948 Y78.833 E0.38481
G1 X109.064 Y78.737 E0.40284
G1 X109.776 Y78.187 E0.51056
G1 X109.935 Y78.074 E0.53392
G1 X110.673 Y77.584 E0.63999
G1 X110.799 Y77.508 E0.65761
G1 X111.593 Y77.062 E0.76665
G1 X111.743 Y76.984 E0.78689
G1 X112.558 Y76.601 E0.89472
G1 X112.701 Y76.541 E0.91328
G1 X113.56 Y76.212 E1.02342
G1 X113.71 Y76.16 E1.04243
G1 X114.56 Y75.905 E1.14869
G1 X114.733 Y75.859 E1.17012
G1 X115.628 Y75.658 E1.27996
G1 X115.758 Y75.635 E1.29577
G1 X116.663 Y75.501 E1.40531
G1 X116.832 Y75.483 E1.42566
G1 X117.905 Y75.408 E1.55445
G1 X118.41 Y75.4 E1.61492
G1 X181.653 Y75.401 E9.18742
G1 X182.777 Y75.446 E9.32211
G1 X183.694 Y75.548 E9.43259
G1 X183.869 Y75.573 E9.45375
G1 X184.758 Y75.737 E9.56199
G1 X184.881 Y75.765 E9.5771
G1 X185.775 Y75.999 E9.68775
G1 X185.938 Y76.048 E9.70813
G1 X186.78 Y76.335 E9.81464
G1 X186.946 Y76.398 E9.8359
G1 X187.749 Y76.739 E9.94036
G1 X187.938 Y76.827 E9.96532
G1 X188.849 Y77.301 E10.08828
G1 X189.628 Y77.776 E10.19753
G1 X189.779 Y77.876 E10.21922
G1 X190.493 Y78.387 E10.32435
G1 X190.641 Y78.5 E10.34664
G1 X191.332 Y79.076 E10.45436
G1 X191.445 Y79.177 E10.4725
G1 X192.094 Y79.802 E10.58039
G1 X192.214 Y79.927 E10.60114
G1 X192.817 Y80.598 E10.70916
G1 X192.913 Y80.714 E10.72718
G1 X193.472 Y81.438 E10.83671
G1 X193.566 Y81.569 E10.85601
G1 X194.066 Y82.323 E10.96434
G1 X194.142 Y82.449 E10.98196
G1 X194.588 Y83.243 E11.091
G1 X194.666 Y83.393 E11.11124
G1 X195.049 Y84.208 E11.21907
G1 X195.109 Y84.351 E11.23764
G1 X195.438 Y85.21 E11.34778
G1 X195.49 Y85.36 E11.36679
G1 X195.745 Y86.21 E11.47304
G1 X195.791 Y86.383 E11.49448
G1 X195.99 Y87.269 E11.60321
G1 X196.015 Y87.408 E11.62012
G1 X196.148 Y88.307 E11.72893
G1 X196.166 Y88.469 E11.74845
G1 X196.242 Y89.555 E11.8788
G1 X196.25 Y90.056 E11.9388
G1 X196.25 Y209.986 E26.29879
G1 X196.214 Y210.992 E26.41932
G1 X196.204 Y211.127 E26.43553
G1 X196.102 Y212.044 E26.54601
G1 X196.077 Y212.219 E26.56717
G1 X195.915 Y213.097 E26.67408
G1 X195.885 Y213.231 E26.69052
G1 X195.654 Y214.116 E26.80004
G1 X195.602 Y214.288 E26.82155
G1 X195.326 Y215.1 E26.92424
G1 X195.246 Y215.309 E26.95104
G1 X194.911 Y216.099 E27.05378
G1 X194.83 Y216.274 E27.07687
G1 X194.414 Y217.082 E27.18569
G1 X193.874 Y217.978 E27.31095
G1 X193.774 Y218.129 E27.33264
G1 X193.263 Y218.843 E27.43777
G1 X193.15 Y218.991 E27.46006
G1 X192.574 Y219.682 E27.56778
G1 X192.473 Y219.795 E27.58592
G1 X191.848 Y220.444 E27.69381
G1 X191.723 Y220.564 E27.71455
G1 X191.053 Y221.166 E27.8224
G1 X190.936 Y221.263 E27.8406
G1 X190.224 Y221.813 E27.94833
G1 X190.065 Y221.926 E27.97168
G1 X189.327 Y222.416 E28.07775
G1 X189.201 Y222.492 E28.09537
G1 X188.407 Y222.938 E28.20441
G1 X188.256 Y223.016 E28.22476
G1 X187.442 Y223.399 E28.33248
G1 X187.299 Y223.459 E28.35105
G1 X186.44 Y223.788 E28.46119
G1 X186.29 Y223.84 E28.4802
G1 X185.44 Y224.095 E28.58645
G1 X185.267 Y224.141 E28.60789
G1 X184.372 Y224.342 E28.71772
G1 X184.242 Y224.365 E28.73353
G1 X183.337 Y224.499 E28.84307
G1 X183.169 Y224.517 E28.8633
G1 X182.095 Y224.592 E28.99221
G1 X181.59 Y224.6 E29.05269
G1 X118.347 Y224.599 E36.62518
G1 X117.223 Y224.554 E36.75987
G1 X116.306 Y224.452 E36.87035
G1 X116.131 Y224.427 E36.89152
G1 X115.242 Y224.263 E36.99976
G1 X115.119 Y224.235 E37.01486
G1 X114.225 Y224.001 E37.12551
G1 X114.062 Y223.952 E37.14589
G1 X113.22 Y223.665 E37.25241
G1 X113.054 Y223.602 E37.27367
G1 X112.251 Y223.261 E37.37812
G1 X112.062 Y223.173 E37.40309
G1 X111.151 Y222.699 E37.52605
G1 X110.372 Y222.224 E37.6353
G1 X110.221 Y222.124 E37.65698
G1 X109.507 Y221.613 E37.76211
G1 X109.359 Y221.5 E37.78441
G1 X108.668 Y220.924 E37.89212
G1 X108.555 Y220.823 E37.91027
G1 X107.906 Y220.198 E38.01815
G1 X107.786 Y220.073 E38.0389
G1 X107.183 Y219.402 E38.14692
G1 X107.086 Y219.284 E38.16521
G1 X106.528 Y218.562 E38.27447
G1 X106.424 Y218.415 E38.29603
G1 X105.931 Y217.672 E38.4028
G1 X105.858 Y217.551 E38.41972
G1 X105.406 Y216.746 E38.53026
G1 X105.334 Y216.607 E38.549
G1 X104.937 Y215.761 E38.6609
G1 X104.891 Y215.649 E38.6754
G1 X104.562 Y214.79 E38.78554
G1 X104.505 Y214.625 E38.80644
G1 X104.255 Y213.79 E38.9108
G1 X104.209 Y213.617 E38.93224
G1 X104.007 Y212.716 E39.0428
G1 X103.985 Y212.592 E39.05788
G1 X103.85 Y211.678 E39.1685
G1 X103.833 Y211.518 E39.18777
G1 X103.758 Y210.445 E39.31656
G1 X103.75 Y209.944 E39.37656
G1 X103.75 Y90.014 E53.73655
G1 X103.786 Y89.008 E53.85708
G1 X103.796 Y88.873 E53.87329
G1 X103.898 Y87.956 E53.98377
G1 X103.923 Y87.781 E54.00494
G1 X104.085 Y86.903 E54.11184
G1 X104.115 Y86.769 E54.12828
G1 X104.346 Y85.884 E54.2378
G1 X104.398 Y85.712 E54.25931
G1 X104.685 Y84.87 E54.36583
G1 X104.748 Y84.704 E54.38709
G1 X105.089 Y83.901 E54.49154
G1 X105.17 Y83.726 E54.51463
G1 X105.651 Y82.801 E54.63947
G1 X106.126 Y82.022 E54.74872
G1 X106.226 Y81.871 E54.7704
G1 X106.737 Y81.157 E54.87553
G0 F9000 X107.2 Y80.589
G1 F1125 X107.2 Y219.42 E71.49867
G0 F9000 X108.8 Y221.034
G1 F1125 X108.8 Y78.966 E88.50939
G0 F9000 X110.4 Y77.765
G1 F1125 X110.4 Y222.241 E105.80844
G0 F9000 X112 Y223.14
G1 F1125 X112 Y76.863 E123.32314
G0 F9000 X113.6 Y76.198
G1 F1125 X113.6 Y223.794 E140.99576
G0 F9000 X115.2 Y224.253
G1 F1125 X115.2 Y75.754 E158.77651
G0 F9000 X116.8 Y75.486
G1 F1125 X116.8 Y224.506 E176.61964
G0 F9000 X118.4 Y224.599
G1 F1125 X118.4 Y75.4 E194.48421
G0 F9000 X120 Y75.401
G1 F1125 X120 Y224.599 E212.34865
G0 F9000 X121.6 Y224.599
G1 F1125 X121.6 Y75.401 E230.21309
G0 F9000 X123.2 Y75.401
G1 F1125 X123.2 Y224.599 E248.07754
G0 F9000 X124.8 Y224.599
G1 F1125 X124.8 Y75.401 E265.94198
G0 F9000 X126.4 Y75.401
G1 F1125 X126.4 Y224.599 E283.80643
G0 F9000 X128 Y224.599
G1 F1125 X128 Y75.401 E301.67087
G0 F9000 X129.6 Y75.401
G1 F1125 X129.6 Y224.599 E319.53531
G0 F9000 X131.2 Y224.599
G1 F1125 X131.2 Y75.401 E337.39976
G0 F9000 X132.8 Y75.401
G1 F1125 X132.8 Y224.599 E355.2642
G0 F9000 X134.4 Y224.599
G1 F1125 X134.4 Y75.401 E373.12865
G0 F9000 X136 Y75.401
G1 F1125 X136 Y224.599 E390.99309
G0 F9000 X137.6 Y224.599
G1 F1125 X137.6 Y75.401 E408.85754
G0 F9000 X139.2 Y75.401
G1 F1125 X139.2 Y224.599 E426.72198
G0 F9000 X140.8 Y224.599
G1 F1125 X140.8 Y75.401 E444.58642
G0 F9000 X142.4 Y75.401
G1 F1125 X142.4 Y224.599 E462.45087
G0 F9000 X144 Y224.599
G1 F1125 X144 Y75.401 E480.31531
G0 F9000 X145.6 Y75.401
G1 F1125 X145.6 Y224.599 E498.17976
G0 F9000 X147.2 Y224.599
G1 F1125 X147.2 Y75.401 E516.0442
G0 F9000 X148.8 Y75.401
G1 F1125 X148.8 Y224.599 E533.90865
G0 F9000 X150.4 Y224.599
G1 F1125 X150.4 Y75.401 E551.77309
G0 F9000 X152 Y75.401
G1 F1125 X152 Y224.599 E569.63753
G0 F9000 X153.6 Y224.599
G1 F1125 X153.6 Y75.401 E587.50198
G0 F9000 X155.2 Y75.401
G1 F1125 X155.2 Y224.599 E605.36642
G0 F9000 X156.8 Y224.599
G1 F1125 X156.8 Y75.401 E623.23087
G0 F9000 X158.4 Y75.401
G1 F1125 X158.4 Y224.599 E641.09531
G0 F9000 X160 Y224.599
G1 F1125 X160 Y75.401 E658.95976
G0 F9000 X161.6 Y75.401
G1 F1125 X161.6 Y224.599 E676.8242
G0 F9000 X163.2 Y224.599
G1 F1125 X163.2 Y75.401 E694.68864
G0 F9000 X164.8 Y75.401
G1 F1125 X164.8 Y224.599 E712.55309
G0 F9000 X166.4 Y224.599
G1 F1125 X166.4 Y75.401 E730.41753
G0 F9000 X168 Y75.401
G1 F1125 X168 Y224.599 E748.28198
G0 F9000 X169.6 Y224.599
G1 F1125 X169.6 Y75.401 E766.14642
G0 F9000 X171.2 Y75.401
G1 F1125 X171.2 Y224.599 E784.01087
G0 F9000 X172.8 Y224.599
G1 F1125 X172.8 Y75.401 E801.87531
G0 F9000 X174.4 Y75.401
G1 F1125 X174.4 Y224.599 E819.73975
G0 F9000 X176 Y224.599
G1 F1125 X176 Y75.401 E837.6042
G0 F9000 X177.6 Y75.401
G1 F1125 X177.6 Y224.599 E855.46864
G0 F9000 X179.2 Y224.599
G1 F1125 X179.2 Y75.401 E873.33309
G0 F9000 X180.8 Y75.401
G1 F1125 X180.8 Y224.599 E891.19753
G0 F9000 X182.4 Y224.571
G1 F1125 X182.4 Y75.431 E909.05503
G0 F9000 X184 Y75.598
G1 F1125 X184 Y224.401 E926.87218
G0 F9000 X185.6 Y224.047
G1 F1125 X185.6 Y75.954 E944.60431
G0 F9000 X187.2 Y76.506
G1 F1125 X187.2 Y223.497 E962.2045
G0 F9000 X188.8 Y222.718
G1 F1125 X188.8 Y77.276 E979.61921
G0 F9000 X190.4 Y78.321
G1 F1125 X190.4 Y221.678 E996.78428
G0 F9000 X192 Y220.287
G1 F1125 X192 Y79.712 E1013.61623
G0 F9000 X193.6 Y81.621
G1 F1125 X193.6 Y218.373 E1029.99044
G0 F9000 X195.2 Y215.418
G1 F1125 X195.2 Y84.589 E1045.65544
G1 F2700 E1035.65544
G0 F9000 X196.1 Y83.961
G0 X195.528 Y82.743
G0 X194.446 Y80.972
G0 X193.618 Y79.897
G0 X192.164 Y78.392
G0 X191.131 Y77.534
G0 X189.393 Y76.387
G0 X188.188 Y75.769
G0 X186.27 Y75.036
G0 X184.966 Y74.694
G0 X182.881 Y74.387
G0 X181.637 Y74.336
G0 X117.66 Y74.354
G0 X115.592 Y74.583
G0 X114.277 Y74.879
G0 X112.311 Y75.55
G0 X111.093 Y76.122
G0 X109.327 Y77.201
G0 X108.247 Y78.032
G0 X106.742 Y79.486
G0 X105.884 Y80.519
G0 X104.737 Y82.257
G0 X105.6 Y82.899
G1 F2700 E1045.65544
G1 F1125 X105.6 Y217.091 E1061.72312
G1 F2700 E1051.72312
G0 F9000 X104.472 Y217.257
G0 X103.9 Y216.038
G0 X103.358 Y214.447
G0 X102.965 Y212.934
G0 X104 Y212.676
G1 F2700 E1061.72312
G1 F1125 X104 Y87.363 E1076.72766
G1 F2700 E1066.72766
G0 F300 X104 Y87.363 Z0.66
G0 F9000 X102.953 Y87.17
G0 X103.386 Y85.38
G0 X104.119 Y83.462
G0 X104.737 Y82.257
G0 X105.884 Y80.519
G0 X106.742 Y79.486
G0 X108.247 Y78.032
G0 X109.327 Y77.201
G0 X111.093 Y76.122
G0 X112.311 Y75.55
G0 X114.277 Y74.879
G0 X115.592 Y74.583
G0 X117.66 Y74.354
G0 X182.707 Y74.374
G0 X184.033 Y74.521
G0 X186.06 Y74.973
G0 X187.35 Y75.413
G0 X187.882 Y75.662
G0 X189.393 Y76.387
G0 X189.298 Y77.575
;TIME_ELAPSED:494.765846
;LAYER:-5
M140 S70
;TYPE:SUPPORT
G1 F2700 E1076.72766
G1 F1125 X188.848 Y77.3 E1076.78028
G1 X187.937 Y76.827 E1076.8827
G1 X187.748 Y76.739 E1076.90351
G1 X186.945 Y76.397 E1076.99059
G1 X186.779 Y76.335 E1077.00828
G1 X186.574 Y76.265 E1077.02989
G1 X195.387 Y85.078 E1078.2735
G1 X195.437 Y85.21 E1078.28758
G1 X195.488 Y85.359 E1078.3033
G1 X195.744 Y86.21 E1078.39197
G1 X195.79 Y86.382 E1078.40974
G1 X195.939 Y87.044 E1078.47744
G1 X184.602 Y75.708 E1080.07714
G1 X183.868 Y75.573 E1080.15161
G1 X183.692 Y75.547 E1080.16936
G1 X182.945 Y75.465 E1080.24435
G1 X196.181 Y88.701 E1082.11209
G1 X196.241 Y89.554 E1082.19741
G1 X196.249 Y90.055 E1082.24741
G1 X196.249 Y90.183 E1082.26018
G1 X181.466 Y75.4 E1084.34622
G1 X180.052 Y75.4 E1084.48731
G1 X196.249 Y91.597 E1086.77288
G1 X196.249 Y93.012 E1086.91407
G1 X178.638 Y75.4 E1089.39925
G1 X177.224 Y75.4 E1089.54034
G1 X196.249 Y94.426 E1092.22504
G1 X196.249 Y95.84 E1092.36613
G1 X175.81 Y75.4 E1095.25036
G1 X174.395 Y75.4 E1095.39155
G1 X196.249 Y97.254 E1098.47539
G1 X196.249 Y98.668 E1098.61648
G1 X172.981 Y75.4 E1101.89984
G1 X171.567 Y75.4 E1102.04093
G1 X196.249 Y100.083 E1105.5239
G1 X196.249 Y101.497 E1105.66499
G1 X170.153 Y75.4 E1109.34749
G1 X168.739 Y75.4 E1109.48858
G1 X196.249 Y102.911 E1113.37061
G1 X196.249 Y104.325 E1113.5117
G1 X167.324 Y75.4 E1117.59333
G1 X165.91 Y75.4 E1117.73441
G1 X196.249 Y105.74 E1122.01565
G1 X196.249 Y107.154 E1122.15674
G1 X164.496 Y75.4 E1126.6375
G1 X163.082 Y75.4 E1126.77859
G1 X196.249 Y108.568 E1131.45888
G1 X196.249 Y109.982 E1131.59997
G1 X161.667 Y75.4 E1136.47986
G1 X160.253 Y75.4 E1136.62095
G1 X196.249 Y111.396 E1141.70038
G1 X196.249 Y112.811 E1141.84157
G1 X158.839 Y75.4 E1147.12059
G1 X157.425 Y75.4 E1147.26168
G1 X196.249 Y114.225 E1152.74024
G1 X196.249 Y115.639 E1152.88133
G1 X156.011 Y75.4 E1158.55941
G1 X154.596 Y75.4 E1158.7006
G1 X196.249 Y117.053 E1164.57829
G1 X196.249 Y118.467 E1164.71938
G1 X153.182 Y75.4 E1170.7966
G1 X151.768 Y75.4 E1170.93769
G1 X196.249 Y119.882 E1177.21451
G1 X196.249 Y121.296 E1177.3556
G1 X150.354 Y75.4 E1183.83195
G1 X148.94 Y75.4 E1183.97304
G1 X196.249 Y122.71 E1190.64892
G1 X196.249 Y124.124 E1190.79001
G1 X147.525 Y75.4 E1197.66549
G1 X146.111 Y75.4 E1197.80658
G1 X196.249 Y125.539 E1204.88167
G1 X196.249 Y126.953 E1205.02276
G1 X144.697 Y75.4 E1212.29737
G1 X143.283 Y75.4 E1212.43846
G1 X196.249 Y128.367 E1219.91261
G1 X196.249 Y129.781 E1220.05369
G1 X141.868 Y75.4 E1227.72744
G1 X140.454 Y75.4 E1227.86853
G1 X196.249 Y131.195 E1235.74181
G1 X196.249 Y132.61 E1235.883
G1 X139.04 Y75.4 E1243.95588
G1 X137.626 Y75.4 E1244.09697
G1 X196.249 Y134.024 E1252.36937
G1 X196.249 Y135.438 E1252.51046
G1 X136.212 Y75.4 E1260.9824
G1 X134.797 Y75.4 E1261.12359
G1 X196.249 Y136.852 E1269.79513
G1 X196.249 Y138.266 E1269.93622
G1 X133.383 Y75.4 E1278.80729
G1 X131.969 Y75.4 E1278.94838
G1 X196.249 Y139.681 E1288.01906
G1 X196.249 Y141.095 E1288.16015
G1 X130.555 Y75.4 E1297.43035
G1 X129.141 Y75.4 E1297.57144
G1 X196.249 Y142.509 E1307.04117
G1 X196.249 Y143.923 E1307.18226
G1 X127.726 Y75.4 E1316.8516
G1 X126.312 Y75.4 E1316.99269
G1 X196.249 Y145.338 E1326.86163
G1 X196.249 Y146.752 E1327.00271
G1 X124.898 Y75.4 E1337.07118
G1 X123.484 Y75.4 E1337.21227
G1 X196.249 Y148.166 E1347.48027
G1 X196.249 Y149.58 E1347.62136
G1 X122.069 Y75.4 E1358.08896
G1 X120.655 Y75.4 E1358.23005
G1 X196.25 Y150.995 E1368.89732
G1 X196.25 Y152.409 E1369.03841
G1 X119.241 Y75.4 E1379.90521
G1 X118.409 Y75.4 E1379.98823
G1 X117.903 Y75.407 E1380.03872
G1 X117.839 Y75.412 E1380.04513
G1 X196.25 Y153.824 E1391.10984
G1 X196.25 Y155.238 E1391.25093
G1 X116.533 Y75.521 E1402.49986
G1 X115.757 Y75.634 E1402.5781
G1 X115.627 Y75.657 E1402.59128
G1 X115.324 Y75.726 E1402.62228
G1 X196.25 Y156.652 E1414.04182
G1 X196.25 Y158.066 E1414.1829
G1 X114.197 Y76.013 E1425.76147
G1 X113.709 Y76.16 E1425.81232
G1 X113.559 Y76.211 E1425.82813
G1 X113.142 Y76.372 E1425.87273
G1 X196.25 Y159.48 E1437.60017
G1 X196.25 Y160.895 E1437.74136
G1 X112.148 Y76.793 E1449.60906
G1 X111.742 Y76.984 E1449.65383
G1 X111.592 Y77.061 E1449.67065
G1 X111.215 Y77.274 E1449.71386
G1 X196.25 Y162.309 E1461.71322
G1 X196.25 Y163.723 E1461.85431
G1 X110.334 Y77.807 E1473.97798
G1 X109.934 Y78.073 E1474.02591
G1 X109.774 Y78.186 E1474.04546
G1 X109.507 Y78.394 E1474.07923
G1 X196.25 Y165.137 E1486.3196
G1 X196.25 Y166.551 E1486.46069
G1 X108.728 Y79.03 E1498.81092
G1 X108.276 Y79.436 E1498.87155
G1 X108.151 Y79.555 E1498.88877
G1 X107.998 Y79.714 E1498.91078
G1 X196.25 Y167.966 E1511.3641
G1 X196.25 Y169.38 E1511.50518
G1 X107.317 Y80.447 E1524.05459
G1 X106.849 Y81.008 E1524.12749
G1 X106.736 Y81.157 E1524.14615
G1 X106.684 Y81.228 E1524.15493
G1 X196.25 Y170.794 E1536.79366
G1 X196.25 Y172.208 E1536.93475
G1 X106.101 Y82.059 E1549.65575
G1 X105.65 Y82.8 E1549.7423
G1 X105.573 Y82.946 E1549.75877
G1 X196.25 Y173.622 E1562.55421
G1 X196.25 Y175.037 E1562.69539
G1 X105.096 Y83.883 E1575.55821
G1 X105.088 Y83.901 E1575.56017
G1 X104.747 Y84.703 E1575.64713
G1 X104.684 Y84.869 E1575.66485
G1 X104.68 Y84.881 E1575.66611
G1 X196.25 Y176.451 E1588.58763
G1 X196.25 Y177.865 E1588.72872
G1 X104.328 Y85.943 E1601.6999
G1 X104.114 Y86.769 E1601.78504
G1 X104.083 Y86.902 E1601.79867
G1 X104.05 Y87.08 E1601.81673
G1 X196.25 Y179.279 E1614.82708
G1 X196.25 Y180.694 E1614.96827
G1 X103.858 Y88.302 E1628.00578
G1 X103.795 Y88.872 E1628.063
G1 X103.784 Y89.007 E1628.07651
G1 X103.762 Y89.62 E1628.13772
G1 X196.25 Y182.108 E1641.18877
G1 X196.25 Y183.522 E1641.32986
G1 X103.748 Y91.02 E1654.38289
G1 X103.748 Y92.435 E1654.52408
G1 X196.25 Y184.936 E1667.57704
G1 X196.25 Y186.35 E1667.71813
G1 X103.748 Y93.849 E1680.77109
G1 X103.748 Y95.263 E1680.91218
G1 X196.25 Y187.765 E1693.96522
G1 X196.25 Y189.179 E1694.10631
G1 X103.748 Y96.677 E1707.15934
G1 X103.748 Y98.091 E1707.30043
G1 X196.25 Y190.593 E1720.35346
G1 X196.25 Y192.007 E1720.49455
G1 X103.748 Y99.506 E1733.54751
G1 X103.748 Y100.92 E1733.6886
G1 X196.25 Y193.421 E1746.74156
G1 X196.25 Y194.836 E1746.88275
G1 X103.748 Y102.334 E1759.93578
G1 X103.748 Y103.748 E1760.07687
