;FLAVOR:Marlin
;TIME:33299
;Filament used: 23.8662m
;Layer height: 0.2
;MINX:84.856
;MINY:75.144
;MINZ:0.3
;MAXX:238.924
;MAXY:217.339
;MAXZ:63.3
;Generated with Cura_SteamEngine 4.5.0
M140 S70
M105
M190 S70
M104 S200
M105
M109 S200
M82 ;absolute extrusion mode

G92 E0
G92 E0
G1 F2700 E-10
;LAYER_COUNT:316
;LAYER:0
M107
M204 S500
G0 F6000 X87.42 Y79.3 Z0.3
;TYPE:SKIRT
G1 F2700 E0
G1 F900 X88.051 Y78.606 E0.0468
G1 X88.739 Y77.969 E0.09357
G1 X89.478 Y77.392 E0.14035
G1 X90.265 Y76.88 E0.18719
G1 X91.091 Y76.438 E0.23393
G1 X91.953 Y76.067 E0.28075
G1 X92.843 Y75.771 E0.32754
G1 X93.755 Y75.552 E0.37434
G1 X94.682 Y75.412 E0.42111
G1 X95.557 Y75.352 E0.46486
G1 X96.186 Y75.339 E0.49625
G1 X158.606 Y75.34 E3.6104
G1 X159.533 Y75.354 E3.65665
G1 X162.085 Y75.427 E3.78402
G1 X164.574 Y75.427 E3.9082
G1 X167.091 Y75.357 E4.03382
G1 X170.625 Y75.157 E4.21042
G1 X171.254 Y75.144 E4.2418
G1 X227.375 Y75.145 E7.04169
G1 X228.073 Y75.155 E7.07652
G1 X229.009 Y75.209 E7.12329
G1 X229.937 Y75.341 E7.17006
G1 X230.851 Y75.553 E7.21687
G1 X231.743 Y75.842 E7.26365
G1 X232.608 Y76.205 E7.31045
G1 X233.438 Y76.641 E7.35722
G1 X234.229 Y77.146 E7.40404
G1 X234.973 Y77.717 E7.45083
G1 X235.666 Y78.349 E7.49763
G1 X236.303 Y79.037 E7.5444
G1 X236.878 Y79.778 E7.5912
G1 X237.389 Y80.564 E7.63797
G1 X237.831 Y81.392 E7.6848
G1 X238.2 Y82.254 E7.73158
G1 X238.495 Y83.144 E7.77835
G1 X238.713 Y84.056 E7.82514
G1 X238.853 Y84.984 E7.87196
G1 X238.911 Y85.84 E7.91476
G1 X238.924 Y86.469 E7.94615
G1 X238.924 Y205.404 E13.87984
G1 X238.914 Y206.27 E13.92305
G1 X238.863 Y207.207 E13.96986
G1 X238.732 Y208.136 E14.01667
G1 X238.522 Y209.05 E14.06346
G1 X238.235 Y209.943 E14.11025
G1 X237.873 Y210.808 E14.15704
G1 X237.439 Y211.639 E14.20381
G1 X236.935 Y212.43 E14.2506
G1 X236.366 Y213.176 E14.29741
G1 X235.736 Y213.87 E14.34417
G1 X235.049 Y214.508 E14.39095
G1 X234.309 Y215.086 E14.43779
G1 X233.524 Y215.598 E14.48455
G1 X232.697 Y216.041 E14.53136
G1 X231.836 Y216.412 E14.57813
G1 X230.946 Y216.709 E14.62494
G1 X230.035 Y216.929 E14.6717
G1 X229.107 Y217.07 E14.71853
G1 X228.223 Y217.131 E14.76273
G1 X227.594 Y217.144 E14.79412
G1 X171.474 Y217.143 E17.59396
G1 X170.547 Y217.129 E17.64021
G1 X167.995 Y217.056 E17.76758
G1 X165.506 Y217.056 E17.89176
G1 X162.989 Y217.126 E18.01738
G1 X159.455 Y217.326 E18.19398
G1 X158.826 Y217.339 E18.22537
G1 X96.421 Y217.338 E21.33876
G1 X95.723 Y217.329 E21.37359
G1 X94.787 Y217.277 E21.42036
G1 X93.858 Y217.145 E21.46717
G1 X92.944 Y216.935 E21.51396
G1 X92.051 Y216.648 E21.56076
G1 X91.186 Y216.285 E21.60756
G1 X90.355 Y215.851 E21.65433
G1 X89.564 Y215.347 E21.70112
G1 X88.819 Y214.777 E21.74792
G1 X88.125 Y214.146 E21.79472
G1 X87.488 Y213.459 E21.84146
G1 X86.911 Y212.719 E21.88827
G1 X86.399 Y211.933 E21.93507
G1 X85.956 Y211.106 E21.98188
G1 X85.585 Y210.245 E22.02865
G1 X85.289 Y209.355 E22.07545
G1 X85.07 Y208.443 E22.12224
G1 X84.929 Y207.516 E22.16902
G1 X84.869 Y206.627 E22.21347
G1 X84.856 Y205.997 E22.24491
G1 X84.856 Y87.031 E28.18015
G1 X84.866 Y86.203 E28.22146
G1 X84.918 Y85.267 E28.26823
G1 X85.05 Y84.338 E28.31504
G1 X85.261 Y83.424 E28.36184
G1 X85.548 Y82.531 E28.40864
G1 X85.911 Y81.667 E28.45539
G1 X86.346 Y80.836 E28.50219
G1 X86.85 Y80.045 E28.54898
G1 X87.42 Y79.3 E28.59578
G0 F6000 X87.814 Y79.453
G1 F900 X88.443 Y78.78 E28.64174
G1 X89.127 Y78.165 E28.68763
G1 X89.863 Y77.611 E28.73359
G1 X90.644 Y77.123 E28.77953
G1 X91.464 Y76.705 E28.82545
G1 X92.317 Y76.359 E28.87138
G1 X93.197 Y76.089 E28.9173
G1 X94.098 Y75.896 E28.96327
G1 X95.011 Y75.782 E29.00917
G1 X95.568 Y75.752 E29.037
G1 X96.186 Y75.739 E29.06784
G1 X158.601 Y75.74 E32.18174
G1 X159.521 Y75.754 E32.22764
G1 X162.073 Y75.827 E32.35502
G1 X164.585 Y75.827 E32.48034
G1 X167.125 Y75.756 E32.60711
G1 X170.636 Y75.557 E32.78256
G1 X171.254 Y75.544 E32.8134
G1 X227.369 Y75.545 E35.61298
G1 X228.067 Y75.555 E35.64781
G1 X228.986 Y75.608 E35.69374
G1 X229.897 Y75.741 E35.73967
G1 X230.793 Y75.952 E35.78559
G1 X231.667 Y76.24 E35.8315
G1 X232.514 Y76.603 E35.87748
G1 X233.325 Y77.038 E35.92339
G1 X234.095 Y77.542 E35.9693
G1 X234.819 Y78.111 E36.01524
G1 X235.491 Y78.741 E36.0612
G1 X236.106 Y79.426 E36.10713
G1 X236.659 Y80.162 E36.15306
G1 X237.146 Y80.943 E36.19897
G1 X237.563 Y81.764 E36.24492
G1 X237.908 Y82.618 E36.29087
G1 X238.177 Y83.498 E36.33678
G1 X238.369 Y84.399 E36.38274
G1 X238.482 Y85.312 E36.42863
G1 X238.511 Y85.851 E36.45556
G1 X238.524 Y86.469 E36.4864
G1 X238.524 Y205.404 E42.42009
G1 X238.514 Y206.265 E42.46305
G1 X238.463 Y207.185 E42.50902
G1 X238.332 Y208.096 E42.55494
G1 X238.123 Y208.993 E42.60089
G1 X237.836 Y209.867 E42.64678
G1 X237.475 Y210.714 E42.69272
G1 X237.041 Y211.527 E42.7387
G1 X236.539 Y212.298 E42.7846
G1 X235.972 Y213.023 E42.83052
G1 X235.344 Y213.696 E42.87644
G1 X234.66 Y214.312 E42.92236
G1 X233.925 Y214.867 E42.96831
G1 X233.144 Y215.355 E43.01426
G1 X232.324 Y215.774 E43.0602
G1 X231.471 Y216.121 E43.10614
G1 X230.592 Y216.392 E43.15203
G1 X229.691 Y216.585 E43.198
G1 X228.778 Y216.7 E43.24391
G1 X228.212 Y216.731 E43.27219
G1 X227.594 Y216.744 E43.30303
G1 X171.479 Y216.743 E46.10262
G1 X170.559 Y216.729 E46.14852
G1 X168.007 Y216.656 E46.2759
G1 X165.495 Y216.656 E46.40122
G1 X162.955 Y216.727 E46.52799
G1 X159.444 Y216.926 E46.70344
G1 X158.826 Y216.939 E46.73428
G1 X96.426 Y216.938 E49.84742
G1 X95.728 Y216.929 E49.88225
G1 X94.809 Y216.877 E49.92817
G1 X93.898 Y216.746 E49.97409
G1 X93.002 Y216.536 E50.02
G1 X92.127 Y216.249 E50.06595
G1 X91.28 Y215.887 E50.1119
G1 X90.468 Y215.453 E50.15783
G1 X89.697 Y214.951 E50.20373
G1 X88.972 Y214.383 E50.24968
G1 X88.299 Y213.754 E50.29564
G1 X87.684 Y213.07 E50.34153
G1 X87.13 Y212.335 E50.38745
G1 X86.642 Y211.554 E50.4334
G1 X86.223 Y210.734 E50.47934
G1 X85.877 Y209.881 E50.52526
G1 X85.607 Y209.001 E50.57118
G1 X85.414 Y208.1 E50.61716
G1 X85.3 Y207.187 E50.66306
G1 X85.269 Y206.616 E50.69159
G1 X85.256 Y205.997 E50.72248
G1 X85.256 Y87.031 E56.65771
G1 X85.266 Y86.208 E56.69878
G1 X85.318 Y85.289 E56.7447
G1 X85.45 Y84.378 E56.79062
G1 X85.66 Y83.482 E56.83654
G1 X85.947 Y82.607 E56.88248
G1 X86.309 Y81.76 E56.92843
G1 X86.743 Y80.949 E56.97432
G1 X87.246 Y80.177 E57.02029
G1 X87.814 Y79.453 E57.0662
G0 F6000 X88.208 Y79.609
G1 F900 X88.834 Y78.958 E57.11126
G1 X89.516 Y78.365 E57.15635
G1 X90.246 Y77.835 E57.20136
G1 X91.022 Y77.371 E57.24646
G1 X91.835 Y76.978 E57.29152
G1 X92.679 Y76.658 E57.33655
G1 X93.549 Y76.414 E57.38163
G1 X94.436 Y76.249 E57.42664
G1 X95.579 Y76.152 E57.48387
G1 X96.186 Y76.139 E57.51416
G1 X158.595 Y76.14 E60.62776
G1 X159.51 Y76.154 E60.67341
G1 X162.062 Y76.227 E60.80078
G1 X164.596 Y76.227 E60.9272
G1 X167.126 Y76.156 E61.05348
G1 X170.647 Y75.957 E61.22942
G1 X171.254 Y75.944 E61.25971
G1 X227.363 Y75.945 E64.059
G1 X228.061 Y75.955 E64.09383
G1 X228.963 Y76.008 E64.13891
G1 X229.856 Y76.14 E64.18394
G1 X230.734 Y76.351 E64.22899
G1 X231.59 Y76.639 E64.27405
G1 X232.417 Y77.001 E64.31909
G1 X233.209 Y77.436 E64.36417
G1 X233.96 Y77.938 E64.40924
G1 X234.663 Y78.505 E64.4543
G1 X235.313 Y79.132 E64.49935
G1 X235.905 Y79.814 E64.54441
G1 X236.435 Y80.545 E64.58946
G1 X236.897 Y81.321 E64.63451
G1 X237.29 Y82.134 E64.67956
G1 X237.608 Y82.979 E64.72461
G1 X237.851 Y83.849 E64.76967
G1 X238.016 Y84.737 E64.81473
G1 X238.111 Y85.863 E64.87111
G1 X238.124 Y86.469 E64.90135
G1 X238.124 Y205.404 E70.83504
G1 X238.114 Y206.261 E70.8778
G1 X238.063 Y207.162 E70.92282
G1 X237.933 Y208.056 E70.96789
G1 X237.723 Y208.934 E71.01293
G1 X237.437 Y209.791 E71.05801
G1 X237.077 Y210.619 E71.10305
G1 X236.644 Y211.412 E71.14813
G1 X236.143 Y212.163 E71.19317
G1 X235.578 Y212.867 E71.2382
G1 X234.952 Y213.519 E71.2833
G1 X234.271 Y214.112 E71.32835
G1 X233.541 Y214.643 E71.37338
G1 X232.766 Y215.107 E71.41845
G1 X231.954 Y215.501 E71.46348
G1 X231.109 Y215.822 E71.50857
G1 X230.24 Y216.067 E71.55362
G1 X229.352 Y216.233 E71.59869
G1 X228.201 Y216.331 E71.65632
G1 X227.594 Y216.344 E71.68661
G1 X171.485 Y216.343 E74.4859
G1 X170.57 Y216.329 E74.53155
G1 X168.018 Y216.256 E74.65893
G1 X165.484 Y216.256 E74.78535
G1 X162.954 Y216.327 E74.91162
G1 X159.433 Y216.526 E75.08756
G1 X158.826 Y216.539 E75.11785
G1 X96.431 Y216.538 E78.23075
G1 X95.733 Y216.529 E78.26558
G1 X94.832 Y216.478 E78.3106
G1 X93.938 Y216.346 E78.35569
G1 X93.06 Y216.137 E78.40072
G1 X92.203 Y215.85 E78.4458
G1 X91.376 Y215.489 E78.49082
G1 X90.583 Y215.056 E78.5359
G1 X89.832 Y214.555 E78.58094
G1 X89.128 Y213.989 E78.62601
G1 X88.477 Y213.363 E78.67106
G1 X87.884 Y212.682 E78.71612
G1 X87.354 Y211.951 E78.76116
G1 X86.89 Y211.176 E78.80623
G1 X86.496 Y210.363 E78.8513
G1 X86.176 Y209.519 E78.89633
G1 X85.932 Y208.649 E78.94141
G1 X85.766 Y207.761 E78.98648
G1 X85.669 Y206.606 E79.04431
G1 X85.656 Y205.997 E79.0747
G1 X85.656 Y87.031 E85.00994
G1 X85.666 Y86.214 E85.0507
G1 X85.718 Y85.312 E85.09577
G1 X85.849 Y84.418 E85.14085
G1 X86.059 Y83.54 E85.18589
G1 X86.346 Y82.684 E85.23093
G1 X86.707 Y81.856 E85.276
G1 X87.141 Y81.064 E85.32106
G1 X87.642 Y80.313 E85.36609
G1 X88.208 Y79.609 E85.41116
G1 F2700 E75.41116
;MESH:EnclosureLCD1.stl
G0 F6000 X95.191 Y86.759
G0 X96.276 Y86.759
G0 X97.038 Y205.157
G0 X98.799 Y205.149
G0 X99.634 Y201.741
G0 X101.54 Y202.294
G0 X102.077 Y202.662
G0 X102.436 Y203.23
G0 X102.544 Y203.898
G0 X102.386 Y204.553
G0 X101.686 Y205.488
;TYPE:WALL-INNER
G1 F2700 E85.41116
G1 F900 X101.899 Y205.362 E85.42351
G1 X101.923 Y205.343 E85.42504
G1 X102.093 Y205.21 E85.4358
G1 X102.265 Y205.033 E85.44812
G1 X102.412 Y204.836 E85.46038
G1 X102.531 Y204.622 E85.4726
G1 X102.624 Y204.386 E85.48525
G1 X102.68 Y204.146 E85.49755
G1 X102.705 Y203.906 E85.50959
G1 X102.701 Y203.658 E85.52196
G1 X102.66 Y203.409 E85.53455
G1 X102.586 Y203.173 E85.54689
G1 X102.484 Y202.95 E85.55912
G1 X102.352 Y202.741 E85.57146
G1 X102.194 Y202.551 E85.58378
G1 X102.01 Y202.383 E85.59621
G1 X101.804 Y202.243 E85.60864
G1 X101.587 Y202.133 E85.62078
G1 X101.352 Y202.049 E85.63323
G1 X101.111 Y202.001 E85.64549
G1 X100.868 Y201.982 E85.65765
G1 X100.62 Y201.996 E85.67004
G1 X100.376 Y202.044 E85.68245
G1 X100.14 Y202.126 E85.69491
G1 X99.922 Y202.235 E85.70707
G1 X99.716 Y202.374 E85.71947
G1 X99.53 Y202.541 E85.73194
G1 X99.372 Y202.729 E85.74419
G1 X99.239 Y202.934 E85.75638
G1 X99.132 Y203.159 E85.76881
G1 X99.058 Y203.398 E85.7813
G1 X99.017 Y203.639 E85.79349
G1 X99.007 Y203.881 E85.80558
G1 X99.028 Y204.13 E85.81804
G1 X99.086 Y204.375 E85.8306
G1 X99.174 Y204.606 E85.84294
G1 X99.292 Y204.821 E85.85517
G1 X99.437 Y205.022 E85.86754
G1 X99.609 Y205.199 E85.87985
G1 X99.788 Y205.343 E85.89131
G1 X99.802 Y205.354 E85.8922
G1 X100.016 Y205.482 E85.90464
G1 X100.244 Y205.579 E85.917
G1 X100.48 Y205.643 E85.9292
G1 X100.721 Y205.679 E85.94136
G1 X100.972 Y205.681 E85.95388
G1 X101.22 Y205.648 E85.96636
G1 X101.457 Y205.584 E85.97861
G1 X101.686 Y205.488 E85.991
G0 F6000 X101.506 Y205.13
;TYPE:WALL-OUTER
G1 F900 X101.673 Y205.031 E86.00069
G1 X101.825 Y204.912 E86.01032
G1 X101.96 Y204.773 E86.01998
G1 X102.075 Y204.618 E86.02961
G1 X102.169 Y204.45 E86.03922
G1 X102.241 Y204.267 E86.04903
G1 X102.285 Y204.079 E86.05866
G1 X102.305 Y203.888 E86.06824
G1 X102.302 Y203.694 E86.07792
G1 X102.27 Y203.502 E86.08763
G1 X102.212 Y203.316 E86.09735
G1 X102.132 Y203.141 E86.10695
G1 X102.028 Y202.977 E86.11664
G1 X101.904 Y202.828 E86.12631
G1 X101.761 Y202.698 E86.13595
G1 X101.6 Y202.588 E86.14568
G1 X101.429 Y202.501 E86.15525
G1 X101.245 Y202.436 E86.16499
G1 X101.056 Y202.398 E86.17461
G1 X100.864 Y202.383 E86.18422
G1 X100.67 Y202.394 E86.19391
G1 X100.48 Y202.431 E86.20357
G1 X100.296 Y202.495 E86.21329
G1 X100.124 Y202.581 E86.22288
G1 X99.963 Y202.69 E86.23258
G1 X99.818 Y202.82 E86.2423
G1 X99.694 Y202.968 E86.25193
G1 X99.589 Y203.129 E86.26152
G1 X99.506 Y203.305 E86.27123
G1 X99.448 Y203.491 E86.28095
G1 X99.416 Y203.681 E86.29056
G1 X99.408 Y203.873 E86.30015
G1 X99.424 Y204.067 E86.30986
G1 X99.469 Y204.257 E86.3196
G1 X99.538 Y204.438 E86.32926
G1 X99.631 Y204.607 E86.33889
G1 X99.744 Y204.764 E86.34854
G1 X99.879 Y204.903 E86.35821
G1 X100.031 Y205.025 E86.36793
G1 X100.197 Y205.124 E86.37757
G1 X100.376 Y205.2 E86.38727
G1 X100.562 Y205.251 E86.3969
G1 X100.752 Y205.279 E86.40648
G1 X100.947 Y205.281 E86.41621
G1 X101.141 Y205.255 E86.42597
G1 X101.327 Y205.205 E86.43558
G1 X101.506 Y205.13 E86.44526
G0 F6000 X101.703 Y205.523
G1 F2700 E76.44526
G0 F6000 X102.386 Y204.553
G0 X102.544 Y203.898
G0 X102.436 Y203.23
G0 X101.505 Y201.497
G0 X98.501 Y203.265
G0 X98.799 Y205.149
G0 X97.038 Y205.157
G0 X97.038 Y87.521
G0 X98.796 Y87.53
G0 X99.4 Y90.233
G0 X101.029 Y90.676
;TYPE:WALL-INNER
G1 F2700 E86.44526
G1 F900 X101.275 Y90.635 E86.45771
G1 X101.511 Y90.565 E86.46999
G1 X101.739 Y90.461 E86.48249
G1 X101.947 Y90.328 E86.49481
G1 X102.135 Y90.171 E86.50703
G1 X102.303 Y89.988 E86.51942
G1 X102.444 Y89.783 E86.53183
G1 X102.556 Y89.564 E86.54411
G1 X102.638 Y89.332 E86.55638
G1 X102.689 Y89.09 E86.56872
G1 X102.707 Y88.845 E86.58098
G1 X102.694 Y88.598 E86.59332
G1 X102.645 Y88.353 E86.60578
G1 X102.566 Y88.119 E86.6181
G1 X102.455 Y87.899 E86.6304
G1 X102.317 Y87.693 E86.64277
G1 X102.15 Y87.51 E86.65513
G1 X101.964 Y87.35 E86.66737
G1 X101.93 Y87.328 E86.66939
G1 X101.756 Y87.215 E86.67974
G1 X101.533 Y87.11 E86.69204
G1 X101.296 Y87.034 E86.70445
G1 X101.051 Y86.993 E86.71685
G1 X100.81 Y86.983 E86.72888
G1 X100.563 Y87.004 E86.74125
G1 X100.317 Y87.061 E86.75385
G1 X100.088 Y87.15 E86.7661
G1 X99.87 Y87.265 E86.7784
G1 X99.781 Y87.33 E86.7839
G1 X99.669 Y87.412 E86.79082
G1 X99.491 Y87.584 E86.80317
G1 X99.336 Y87.777 E86.81552
G1 X99.21 Y87.989 E86.82783
G1 X99.112 Y88.215 E86.84011
G1 X99.046 Y88.455 E86.85253
G1 X99.012 Y88.695 E86.86463
G1 X99.009 Y88.942 E86.87695
G1 X99.039 Y89.19 E86.88941
G1 X99.104 Y89.429 E86.90177
G1 X99.199 Y89.656 E86.91405
G1 X99.324 Y89.872 E86.9265
G1 X99.478 Y90.067 E86.93889
G1 X99.654 Y90.239 E86.95117
G1 X99.853 Y90.387 E86.96354
G1 X100.068 Y90.506 E86.9758
G1 X100.297 Y90.596 E86.98808
G1 X100.54 Y90.656 E87.00057
G1 X100.783 Y90.68 E87.01275
G1 X101.029 Y90.676 E87.02502
G0 F6000 X100.993 Y90.277
;TYPE:WALL-OUTER
G1 F900 X101.185 Y90.245 E87.03473
G1 X101.37 Y90.19 E87.04436
G1 X101.547 Y90.109 E87.05408
G1 X101.71 Y90.005 E87.06372
G1 X101.858 Y89.881 E87.07335
G1 X101.99 Y89.738 E87.08306
G1 X102.1 Y89.578 E87.09275
G1 X102.188 Y89.406 E87.10239
G1 X102.252 Y89.224 E87.11201
G1 X102.292 Y89.034 E87.1217
G1 X102.306 Y88.841 E87.13136
G1 X102.296 Y88.648 E87.141
G1 X102.258 Y88.457 E87.15071
G1 X102.196 Y88.274 E87.16035
G1 X102.109 Y88.101 E87.17001
G1 X102.001 Y87.94 E87.17969
G1 X101.871 Y87.797 E87.18933
G1 X101.724 Y87.671 E87.19899
G1 X101.561 Y87.565 E87.20869
G1 X101.386 Y87.483 E87.21833
G1 X101.202 Y87.424 E87.22797
G1 X101.01 Y87.392 E87.23768
G1 X100.818 Y87.384 E87.24727
G1 X100.625 Y87.4 E87.25693
G1 X100.435 Y87.444 E87.26666
G1 X100.255 Y87.514 E87.27629
G1 X100.083 Y87.605 E87.286
G1 X99.927 Y87.719 E87.29564
G1 X99.787 Y87.854 E87.30535
G1 X99.666 Y88.005 E87.315
G1 X99.567 Y88.172 E87.32468
G1 X99.49 Y88.348 E87.33427
G1 X99.439 Y88.536 E87.34399
G1 X99.412 Y88.726 E87.35356
G1 X99.409 Y88.92 E87.36324
G1 X99.433 Y89.113 E87.37294
G1 X99.483 Y89.299 E87.38255
G1 X99.558 Y89.478 E87.39224
G1 X99.656 Y89.647 E87.40198
G1 X99.776 Y89.799 E87.41164
G1 X99.914 Y89.934 E87.42128
G1 X100.07 Y90.05 E87.43097
G1 X100.239 Y90.143 E87.4406
G1 X100.419 Y90.214 E87.45025
G1 X100.608 Y90.261 E87.45997
G1 X100.8 Y90.28 E87.46959
G1 X100.993 Y90.277 E87.47922
G0 F6000 X101.032 Y90.715
G1 F2700 E77.47922
G0 F6000 X103.189 Y89.487
G0 X102.92 Y87.531
G0 X151.792 Y87.529
G0 X152.173 Y90.071
G0 X153.61 Y90.667
;TYPE:WALL-INNER
G1 F2700 E87.47922
G1 F900 X153.857 Y90.683 E87.49157
G1 X154.102 Y90.667 E87.50382
G1 X154.346 Y90.618 E87.51624
G1 X154.58 Y90.537 E87.52859
G1 X154.8 Y90.425 E87.54091
G1 X155.006 Y90.284 E87.55336
G1 X155.188 Y90.118 E87.56565
G1 X155.346 Y89.931 E87.57787
G1 X155.481 Y89.722 E87.59028
G1 X155.584 Y89.498 E87.60258
G1 X155.658 Y89.262 E87.61492
