;FLAVOR:Marlin
;TIME:27548
;Filament used: 20.977m
;Layer height: 0.2
;MINX:105.835
;MINY:74.336
;MINZ:0.36
;MAXX:194.164
;MAXY:225.665
;MAXZ:64.51
;Generated with Cura_SteamEngine 4.5.0
M140 S70
M105
M190 S70
M104 S200
M105
M109 S200
M82 ;absolute extrusion mode

G92 E0
G92 E0
G1 F2700 E-10
;LAYER_COUNT:316
;LAYER:-6
M107
M204 S500
G0 F9000 X109.887 Y81.157 Z0.36
;TYPE:SUPPORT-INTERFACE
G1 F2700 E0
G1 F1125 X110 Y81.009 E0.0223
G1 X110.576 Y80.318 E0.13001
G1 X110.677 Y80.205 E0.14816
G1 X111.302 Y79.556 E0.25604
G1 X111.427 Y79.436 E0.27679
G1 X112.098 Y78.833 E0.38481
G1 X112.214 Y78.737 E0.40284
G1 X112.926 Y78.187 E0.51056
G1 X113.085 Y78.074 E0.53392
G1 X113.823 Y77.584 E0.63999
G1 X113.949 Y77.508 E0.65761
G1 X114.743 Y77.062 E0.76665
G1 X114.893 Y76.984 E0.78689
G1 X115.708 Y76.601 E0.89472
G1 X115.851 Y76.541 E0.91328
G1 X116.71 Y76.212 E1.02342
G1 X116.86 Y76.16 E1.04243
G1 X117.71 Y75.905 E1.14869
G1 X117.883 Y75.859 E1.17012
G1 X118.778 Y75.658 E1.27996
G1 X118.908 Y75.635 E1.29577
G1 X119.813 Y75.501 E1.40531
G1 X119.982 Y75.483 E1.42566
G1 X121.055 Y75.408 E1.55445
G1 X121.56 Y75.4 E1.61492
G1 X178.503 Y75.401 E8.43308
G1 X179.627 Y75.446 E8.56777
G1 X180.544 Y75.548 E8.67825
G1 X180.719 Y75.573 E8.69941
G1 X181.608 Y75.737 E8.80765
G1 X181.731 Y75.765 E8.82276
G1 X182.625 Y75.999 E8.93341
G1 X182.788 Y76.048 E8.95379
G1 X183.63 Y76.335 E9.0603
G1 X183.796 Y76.398 E9.08156
G1 X184.599 Y76.739 E9.18602
G1 X184.788 Y76.827 E9.21098
G1 X185.699 Y77.301 E9.33395
G1 X186.478 Y77.776 E9.44319
G1 X186.629 Y77.876 E9.46488
G1 X187.343 Y78.387 E9.57001
G1 X187.491 Y78.5 E9.5923
G1 X188.182 Y79.076 E9.70002
G1 X188.295 Y79.177 E9.71816
G1 X188.944 Y79.802 E9.82605
G1 X189.064 Y79.927 E9.8468
G1 X189.667 Y80.598 E9.95482
G1 X189.763 Y80.714 E9.97284
G1 X190.322 Y81.438 E10.08237
G1 X190.416 Y81.569 E10.10167
G1 X190.916 Y82.323 E10.21
G1 X190.992 Y82.449 E10.22762
G1 X191.438 Y83.243 E10.33666
G1 X191.516 Y83.393 E10.3569
G1 X191.899 Y84.208 E10.46473
G1 X191.959 Y84.351 E10.4833
G1 X192.288 Y85.21 E10.59344
G1 X192.34 Y85.36 E10.61245
G1 X192.595 Y86.21 E10.7187
G1 X192.641 Y86.383 E10.74014
G1 X192.84 Y87.269 E10.84887
G1 X192.865 Y87.408 E10.86578
G1 X192.998 Y88.307 E10.97459
G1 X193.016 Y88.469 E10.99411
G1 X193.092 Y89.555 E11.12446
G1 X193.1 Y90.056 E11.18446
G1 X193.1 Y209.986 E25.54445
G1 X193.064 Y210.992 E25.66498
G1 X193.054 Y211.127 E25.68119
G1 X192.952 Y212.044 E25.79167
G1 X192.927 Y212.219 E25.81284
G1 X192.765 Y213.097 E25.91974
G1 X192.735 Y213.231 E25.93618
G1 X192.504 Y214.116 E26.0457
G1 X192.452 Y214.288 E26.06721
G1 X192.176 Y215.1 E26.1699
G1 X192.096 Y215.309 E26.1967
G1 X191.761 Y216.099 E26.29944
G1 X191.68 Y216.274 E26.32253
G1 X191.264 Y217.082 E26.43135
G1 X190.724 Y217.978 E26.55661
G1 X190.624 Y218.129 E26.5783
G1 X190.113 Y218.843 E26.68343
G1 X190 Y218.991 E26.70572
G1 X189.424 Y219.682 E26.81344
G1 X189.323 Y219.795 E26.83158
G1 X188.698 Y220.444 E26.93947
G1 X188.573 Y220.564 E26.96021
G1 X187.903 Y221.166 E27.06806
G1 X187.786 Y221.263 E27.08626
G1 X187.074 Y221.813 E27.19399
G1 X186.915 Y221.926 E27.21734
G1 X186.177 Y222.416 E27.32341
G1 X186.051 Y222.492 E27.34103
G1 X185.257 Y222.938 E27.45007
G1 X185.106 Y223.016 E27.47042
G1 X184.292 Y223.399 E27.57814
G1 X184.149 Y223.459 E27.59671
G1 X183.29 Y223.788 E27.70685
G1 X183.14 Y223.84 E27.72586
G1 X182.29 Y224.095 E27.83211
G1 X182.117 Y224.141 E27.85355
G1 X181.222 Y224.342 E27.96338
G1 X181.092 Y224.365 E27.97919
G1 X180.187 Y224.499 E28.08873
G1 X180.019 Y224.517 E28.10896
G1 X178.945 Y224.592 E28.23787
G1 X178.44 Y224.6 E28.29835
G1 X121.497 Y224.599 E35.1165
G1 X120.373 Y224.554 E35.25119
G1 X119.456 Y224.452 E35.36167
G1 X119.281 Y224.427 E35.38284
G1 X118.392 Y224.263 E35.49108
G1 X118.269 Y224.235 E35.50618
G1 X117.375 Y224.001 E35.61683
G1 X117.212 Y223.952 E35.63721
G1 X116.37 Y223.665 E35.74373
G1 X116.204 Y223.602 E35.76499
G1 X115.401 Y223.261 E35.86944
G1 X115.212 Y223.173 E35.89441
G1 X114.301 Y222.699 E36.01737
G1 X113.522 Y222.224 E36.12662
G1 X113.371 Y222.124 E36.1483
G1 X112.657 Y221.613 E36.25343
G1 X112.509 Y221.5 E36.27573
G1 X111.818 Y220.924 E36.38344
G1 X111.705 Y220.823 E36.40159
G1 X111.056 Y220.198 E36.50947
G1 X110.936 Y220.073 E36.53022
G1 X110.333 Y219.402 E36.63824
G1 X110.236 Y219.284 E36.65653
G1 X109.678 Y218.562 E36.76579
G1 X109.574 Y218.415 E36.78735
G1 X109.081 Y217.672 E36.89412
G1 X109.008 Y217.551 E36.91104
G1 X108.556 Y216.746 E37.02158
G1 X108.484 Y216.607 E37.04032
G1 X108.087 Y215.761 E37.15222
G1 X108.041 Y215.649 E37.16672
G1 X107.712 Y214.79 E37.27686
G1 X107.655 Y214.625 E37.29776
G1 X107.405 Y213.79 E37.40212
G1 X107.359 Y213.617 E37.42356
G1 X107.157 Y212.716 E37.53412
G1 X107.135 Y212.592 E37.5492
G1 X107 Y211.678 E37.65982
G1 X106.983 Y211.518 E37.67909
G1 X106.908 Y210.445 E37.80788
G1 X106.9 Y209.944 E37.86788
G1 X106.9 Y90.014 E52.22787
G1 X106.936 Y89.008 E52.3484
G1 X106.946 Y88.873 E52.36461
G1 X107.048 Y87.956 E52.47509
G1 X107.073 Y87.781 E52.49626
G1 X107.235 Y86.903 E52.60316
G1 X107.265 Y86.769 E52.6196
G1 X107.496 Y85.884 E52.72912
G1 X107.548 Y85.712 E52.75063
G1 X107.835 Y84.87 E52.85715
G1 X107.898 Y84.704 E52.87841
G1 X108.239 Y83.901 E52.98286
G1 X108.32 Y83.726 E53.00595
G1 X108.801 Y82.801 E53.13079
G1 X109.276 Y82.022 E53.24004
G1 X109.376 Y81.871 E53.26172
G1 X109.887 Y81.157 E53.36685
G0 F9000 X110.4 Y80.529
G1 F1125 X110.4 Y219.476 E70.00388
G0 F9000 X112 Y221.075
G1 F1125 X112 Y78.921 E87.0249
G0 F9000 X113.6 Y77.732
G1 F1125 X113.6 Y222.271 E104.33149
G0 F9000 X115.2 Y223.166
G1 F1125 X115.2 Y76.839 E121.85217
G0 F9000 X116.8 Y76.18
G1 F1125 X116.8 Y223.811 E139.52899
G0 F9000 X118.4 Y224.264
G1 F1125 X118.4 Y75.742 E157.31249
G0 F9000 X120 Y75.481
G1 F1125 X120 Y224.512 E175.15694
G0 F9000 X121.6 Y224.599
G1 F1125 X121.6 Y75.401 E193.02138
G0 F9000 X123.2 Y75.401
G1 F1125 X123.2 Y224.599 E210.88583
G0 F9000 X124.8 Y224.599
G1 F1125 X124.8 Y75.401 E228.75027
G0 F9000 X126.4 Y75.401
G1 F1125 X126.4 Y224.599 E246.61472
G0 F9000 X128 Y224.599
G1 F1125 X128 Y75.401 E264.47916
G0 F9000 X129.6 Y75.401
G1 F1125 X129.6 Y224.599 E282.34361
G0 F9000 X131.2 Y224.599
G1 F1125 X131.2 Y75.401 E300.20805
G0 F9000 X132.8 Y75.401
G1 F1125 X132.8 Y224.599 E318.07249
G0 F9000 X134.4 Y224.599
G1 F1125 X134.4 Y75.401 E335.93694
G0 F9000 X136 Y75.401
G1 F1125 X136 Y224.599 E353.80138
G0 F9000 X137.6 Y224.599
G1 F1125 X137.6 Y75.401 E371.66583
G0 F9000 X139.2 Y75.401
G1 F1125 X139.2 Y224.599 E389.53027
G0 F9000 X140.8 Y224.599
G1 F1125 X140.8 Y75.401 E407.39472
G0 F9000 X142.4 Y75.401
G1 F1125 X142.4 Y224.599 E425.25916
G0 F9000 X144 Y224.599
G1 F1125 X144 Y75.401 E443.1236
G0 F9000 X145.6 Y75.401
G1 F1125 X145.6 Y224.599 E460.98805
G0 F9000 X147.2 Y224.599
G1 F1125 X147.2 Y75.401 E478.85249
G0 F9000 X148.8 Y75.401
G1 F1125 X148.8 Y224.599 E496.71694
G0 F9000 X150.4 Y224.599
G1 F1125 X150.4 Y75.401 E514.58138
G0 F9000 X152 Y75.401
G1 F1125 X152 Y224.599 E532.44583
G0 F9000 X153.6 Y224.599
G1 F1125 X153.6 Y75.401 E550.31027
G0 F9000 X155.2 Y75.401
G1 F1125 X155.2 Y224.599 E568.17471
G0 F9000 X156.8 Y224.599
G1 F1125 X156.8 Y75.401 E586.03916
G0 F9000 X158.4 Y75.401
G1 F1125 X158.4 Y224.599 E603.9036
G0 F9000 X160 Y224.599
G1 F1125 X160 Y75.401 E621.76805
G0 F9000 X161.6 Y75.401
G1 F1125 X161.6 Y224.599 E639.63249
G0 F9000 X163.2 Y224.599
G1 F1125 X163.2 Y75.401 E657.49694
G0 F9000 X164.8 Y75.401
G1 F1125 X164.8 Y224.599 E675.36138
G0 F9000 X166.4 Y224.599
G1 F1125 X166.4 Y75.401 E693.22582
G0 F9000 X168 Y75.401
G1 F1125 X168 Y224.599 E711.09027
G0 F9000 X169.6 Y224.599
G1 F1125 X169.6 Y75.401 E728.95471
G0 F9000 X171.2 Y75.401
G1 F1125 X171.2 Y224.599 E746.81916
G0 F9000 X172.8 Y224.599
G1 F1125 X172.8 Y75.401 E764.6836
G0 F9000 X174.4 Y75.401
G1 F1125 X174.4 Y224.599 E782.54805
G0 F9000 X176 Y224.599
G1 F1125 X176 Y75.401 E800.41249
G0 F9000 X177.6 Y75.401
G1 F1125 X177.6 Y224.599 E818.27693
G0 F9000 X179.2 Y224.575
G1 F1125 X179.2 Y75.429 E836.13515
G0 F9000 X180.8 Y75.588
G1 F1125 X180.8 Y224.409 E853.95446
G0 F9000 X182.4 Y224.062
G1 F1125 X182.4 Y75.941 E871.68994
G0 F9000 X184 Y76.485
G1 F1125 X184 Y223.517 E889.29504
G0 F9000 X185.6 Y222.746
G1 F1125 X185.6 Y77.25 E906.71622
G0 F9000 X187.2 Y78.285
G1 F1125 X187.2 Y221.716 E923.89014
G0 F9000 X188.8 Y220.339
G1 F1125 X188.8 Y79.664 E940.73407
G0 F9000 X190.4 Y81.547
G1 F1125 X190.4 Y218.442 E957.1254
G0 F9000 X192 Y215.536
G1 F1125 X192 Y84.459 E972.8201
G1 F2700 E962.8201
G0 F9000 X192.95 Y83.961
G0 X192.378 Y82.743
G0 X191.296 Y80.972
G0 X190.468 Y79.897
G0 X189.014 Y78.392
G0 X187.981 Y77.534
G0 X186.243 Y76.387
G0 X185.038 Y75.769
G0 X183.12 Y75.036
G0 X181.816 Y74.694
G0 X179.731 Y74.387
G0 X178.487 Y74.336
G0 X120.81 Y74.354
G0 X118.742 Y74.583
G0 X117.427 Y74.879
G0 X115.461 Y75.55
G0 X114.243 Y76.122
G0 X112.477 Y77.201
G0 X111.397 Y78.032
G0 X109.892 Y79.486
G0 X109.034 Y80.519
G0 X107.891 Y82.25
G0 X108.8 Y82.802
G1 F2700 E972.8201
G1 F1125 X108.8 Y217.18 E988.91005
G1 F2700 E978.91005
G0 F9000 X107.622 Y217.257
G0 X107.05 Y216.038
G0 X106.936 Y215.733
G0 X106.327 Y213.878
G0 X107.2 Y212.907
G1 F2700 E988.91005
G1 F1125 X107.2 Y87.092 E1003.97469
G1 F2700 E993.97469
G0 F300 X107.2 Y87.092 Z0.66
G0 F9000 X106.194 Y86.684
G0 X106.536 Y85.38
G0 X107.269 Y83.462
G0 X107.887 Y82.257
G0 X109.034 Y80.519
G0 X109.892 Y79.486
G0 X111.397 Y78.032
G0 X112.477 Y77.201
G0 X114.243 Y76.122
G0 X115.461 Y75.55
G0 X117.427 Y74.879
G0 X118.742 Y74.583
G0 X120.81 Y74.354
G0 X179.557 Y74.374
G0 X180.883 Y74.521
G0 X182.91 Y74.973
G0 X184.2 Y75.413
G0 X185.722 Y76.126
G0 X187.239 Y77.004
G0 X187.129 Y78.235
;TIME_ELAPSED:461.802359
;LAYER:-5
M140 S70
;TYPE:SUPPORT
G1 F2700 E1003.97469
G1 F1125 X186.628 Y77.876 E1004.03619
G1 X186.476 Y77.776 E1004.05435
G1 X185.698 Y77.301 E1004.1453
G1 X184.786 Y76.827 E1004.24786
G1 X184.598 Y76.738 E1004.26861
G1 X183.939 Y76.459 E1004.34002
G1 X192.037 Y84.557 E1005.48273
G1 X192.287 Y85.209 E1005.55241
G1 X192.339 Y85.359 E1005.56825
G1 X192.593 Y86.209 E1005.65677
G1 X192.639 Y86.382 E1005.67463
G1 X192.695 Y86.629 E1005.6999
G1 X181.867 Y75.801 E1007.22785
G1 X181.73 Y75.765 E1007.24198
G1 X181.607 Y75.736 E1007.25459
G1 X180.718 Y75.572 E1007.34479
G1 X180.543 Y75.547 E1007.36243
G1 X180.156 Y75.504 E1007.40129
G1 X193.001 Y88.35 E1009.21392
G1 X193.014 Y88.468 E1009.22577
G1 X193.091 Y89.555 E1009.3345
G1 X193.096 Y89.859 E1009.36484
G1 X178.644 Y75.406 E1011.40424
G1 X178.502 Y75.4 E1011.41843
G1 X177.224 Y75.4 E1011.54595
G1 X193.099 Y91.276 E1013.78615
G1 X193.099 Y92.69 E1013.92724
G1 X175.81 Y75.4 E1016.36697
G1 X174.395 Y75.4 E1016.50816
G1 X193.099 Y94.104 E1019.1475
G1 X193.099 Y95.518 E1019.28859
G1 X172.981 Y75.4 E1022.12746
G1 X171.567 Y75.4 E1022.26855
G1 X193.099 Y96.933 E1025.30701
G1 X193.099 Y98.347 E1025.4481
G1 X170.153 Y75.4 E1028.6861
G1 X168.739 Y75.4 E1028.82719
G1 X193.099 Y99.761 E1032.26472
G1 X193.099 Y101.175 E1032.40581
G1 X167.324 Y75.4 E1036.04294
G1 X165.91 Y75.4 E1036.18403
G1 X193.099 Y102.589 E1040.02069
G1 X193.099 Y104.004 E1040.16188
G1 X164.496 Y75.4 E1044.19815
G1 X163.082 Y75.4 E1044.33924
G1 X193.099 Y105.418 E1048.57503
G1 X193.099 Y106.832 E1048.71612
G1 X161.667 Y75.4 E1053.15151
G1 X160.253 Y75.4 E1053.2926
G1 X193.099 Y108.246 E1057.92753
G1 X193.099 Y109.66 E1058.06862
G1 X158.839 Y75.4 E1062.90307
G1 X157.425 Y75.4 E1063.04416
G1 X193.099 Y111.075 E1068.07822
G1 X193.099 Y112.489 E1068.21931
G1 X156.011 Y75.4 E1073.4529
G1 X154.596 Y75.4 E1073.59409
G1 X193.099 Y113.903 E1079.02728
G1 X193.099 Y115.317 E1079.16837
G1 X153.182 Y75.4 E1084.80109
G1 X151.768 Y75.4 E1084.94218
G1 X193.099 Y116.732 E1090.7745
G1 X193.099 Y118.146 E1090.91559
G1 X150.354 Y75.4 E1096.94744
G1 X148.939 Y75.4 E1097.08863
G1 X193.099 Y119.56 E1103.32008
G1 X193.099 Y120.974 E1103.46117
G1 X147.525 Y75.4 E1109.89215
G1 X146.11 Y75.4 E1110.03334
G1 X193.099 Y122.388 E1116.66393
G1 X193.099 Y123.803 E1116.80512
G1 X144.696 Y75.4 E1123.6353
G1 X143.282 Y75.4 E1123.77639
G1 X193.099 Y125.217 E1130.80611
G1 X193.099 Y126.631 E1130.9472
G1 X141.868 Y75.4 E1138.17645
G1 X140.454 Y75.4 E1138.31754
G1 X193.099 Y128.045 E1145.74631
G1 X193.099 Y129.459 E1145.8874
G1 X139.039 Y75.4 E1153.51578
G1 X137.625 Y75.4 E1153.65687
G1 X193.099 Y130.874 E1161.48485
G1 X193.099 Y132.288 E1161.62594
G1 X136.211 Y75.4 E1169.65345
G1 X134.797 Y75.4 E1169.79454
G1 X193.099 Y133.702 E1178.02159
G1 X193.099 Y135.116 E1178.16267
G1 X133.382 Y75.4 E1186.58932
G1 X131.968 Y75.4 E1186.73041
G1 X193.099 Y136.531 E1195.35665
G1 X193.099 Y137.945 E1195.49774
G1 X130.554 Y75.4 E1204.32352
G1 X129.14 Y75.4 E1204.46461
G1 X193.099 Y139.359 E1213.48991
G1 X193.099 Y140.773 E1213.631
G1 X127.726 Y75.4 E1222.85584
G1 X126.311 Y75.4 E1222.99703
G1 X193.099 Y142.187 E1232.42146
G1 X193.099 Y143.602 E1232.56265
G1 X124.897 Y75.4 E1242.18669
G1 X123.483 Y75.4 E1242.32778
G1 X193.099 Y145.016 E1252.15135
G1 X193.099 Y146.43 E1252.29244
G1 X122.069 Y75.4 E1262.31554
G1 X121.559 Y75.399 E1262.36643
G1 X121.054 Y75.407 E1262.41683
G1 X120.688 Y75.434 E1262.45344
G1 X193.099 Y147.844 E1272.67135
G1 X193.099 Y149.258 E1272.81244
G1 X119.402 Y75.562 E1283.21181
G1 X118.907 Y75.634 E1283.26172
G1 X118.777 Y75.658 E1283.27491
G1 X118.211 Y75.785 E1283.33279
G1 X193.099 Y150.673 E1293.9003
G1 X193.099 Y152.087 E1294.04139
G1 X117.1 Y76.088 E1304.76567
G1 X116.859 Y76.159 E1304.79074
G1 X116.709 Y76.211 E1304.80658
G1 X116.059 Y76.461 E1304.87607
G1 X193.099 Y153.501 E1315.74724
G1 X193.099 Y154.915 E1315.88833
G1 X115.08 Y76.896 E1326.89765
G1 X114.892 Y76.984 E1326.91837
G1 X114.742 Y77.061 E1326.93519
G1 X114.159 Y77.39 E1327.00199
G1 X193.099 Y156.329 E1338.1412
G1 X193.099 Y157.744 E1338.28239
G1 X113.291 Y77.936 E1349.54416
G1 X113.084 Y78.073 E1349.56893
G1 X112.925 Y78.186 E1349.58839
G1 X112.475 Y78.534 E1349.64516
G1 X193.099 Y159.158 E1361.02207
G1 X193.099 Y160.572 E1361.16316
G1 X111.709 Y79.182 E1372.64817
G1 X111.426 Y79.435 E1372.68605
G1 X111.3 Y79.555 E1372.70341
G1 X110.99 Y79.877 E1372.74801
G1 X193.099 Y161.986 E1384.33448
G1 X193.099 Y163.401 E1384.47566
G1 X110.32 Y80.622 E1396.15668
G1 X109.998 Y81.008 E1396.20683
G1 X109.886 Y81.156 E1396.22535
G1 X109.7 Y81.416 E1396.25725
G1 X193.099 Y164.815 E1408.02575
G1 X193.099 Y166.229 E1408.16684
G1 X109.129 Y82.259 E1420.01591
G1 X108.8 Y82.801 E1420.07918
G1 X108.614 Y83.158 E1420.11934
G1 X193.099 Y167.643 E1432.04109
G1 X193.099 Y169.057 E1432.18218
G1 X108.149 Y84.108 E1444.16947
G1 X107.897 Y84.704 E1444.23404
G1 X107.834 Y84.87 E1444.25175
G1 X107.748 Y85.12 E1444.27813
G1 X193.099 Y170.472 E1456.32215
G1 X193.099 Y171.886 E1456.46324
G1 X107.412 Y86.199 E1468.5546
G1 X107.263 Y86.769 E1468.61339
G1 X107.234 Y86.903 E1468.62707
G1 X107.15 Y87.351 E1468.67255
G1 X193.099 Y173.3 E1480.80088
G1 X193.099 Y174.714 E1480.94197
G1 X106.976 Y88.591 E1493.09486
G1 X106.944 Y88.872 E1493.12308
G1 X106.935 Y89.007 E1493.13658
G1 X106.902 Y89.931 E1493.22883
G1 X193.099 Y176.128 E1505.39216
G1 X193.099 Y177.543 E1505.53335
G1 X106.899 Y91.343 E1517.6971
G1 X106.899 Y92.757 E1517.83819
G1 X193.099 Y178.957 E1530.00194
G1 X193.099 Y180.371 E1530.14303
G1 X106.899 Y94.171 E1542.30678
G1 X106.899 Y95.585 E1542.44787
G1 X193.099 Y181.785 E1554.61162
G1 X193.099 Y183.2 E1554.75281
G1 X106.899 Y97 E1566.91656
G1 X106.899 Y98.414 E1567.05765
G1 X193.099 Y184.614 E1579.2214
G1 X193.099 Y186.028 E1579.36249
G1 X106.899 Y99.828 E1591.52625
G1 X106.899 Y101.242 E1591.66734
G1 X193.099 Y187.442 E1603.83109
G1 X193.099 Y188.856 E1603.97218
G1 X106.899 Y102.657 E1616.13586
G1 X106.899 Y104.071 E1616.27695
G1 X193.099 Y190.271 E1628.4407
G1 X193.099 Y191.685 E1628.58179
G1 X106.899 Y105.485 E1640.74554
G1 X106.899 Y106.899 E1640.88663
G1 X193.099 Y193.099 E1653.05038
G1 X193.099 Y194.513 E1653.19147
G1 X106.899 Y108.313 E1665.35522
G1 X106.899 Y109.728 E1665.49641
G1 X193.099 Y195.927 E1677.66009
G1 X193.099 Y197.342 E1677.80128
G1 X106.899 Y111.142 E1689.96503
G1 X106.899 Y112.556 E1690.10612
G1 X193.099 Y198.756 E1702.26987
