;FLAVOR:Marlin
;TIME:11026
;Filament used: 7.20238m
;Layer height: 0.2
;MINX:106.461
;MINY:117.961
;MINZ:0.36
;MAXX:193.54
;MAXY:181.175
;MAXZ:31.16
;Generated with Cura_SteamEngine 4.7.1
M140 S70
M105
M190 S70
M104 S200
M105
M109 S200
M82 ;absolute extrusion mode
;G21
G92 E0
G92 E0
G1 F2700 E-10
;LAYER_COUNT:149
;LAYER:-7
M107
M204 S500
G0 F9000 X110.549 Y121.637 Z0.36
;TYPE:SUPPORT-INTERFACE
G1 F2700 E0
G1 F1350 X111.026 Y121.218 E0.07602
G1 X111.215 Y121.066 E0.10506
G1 X111.715 Y120.701 E0.17918
G1 X111.904 Y120.575 E0.20638
G1 X112.472 Y120.233 E0.28577
G1 X112.623 Y120.151 E0.30634
G1 X113.212 Y119.866 E0.38469
G1 X113.433 Y119.769 E0.41359
G1 X114.02 Y119.546 E0.48877
G1 X114.229 Y119.477 E0.51513
G1 X114.819 Y119.311 E0.58852
G1 X115.07 Y119.253 E0.61936
G1 X115.688 Y119.137 E0.69465
G1 X115.89 Y119.109 E0.71907
G1 X116.584 Y119.043 E0.80254
G1 X116.716 Y119.036 E0.81837
G1 X117.119 Y119.025 E0.86664
G1 X182.799 Y119.025 E8.73093
G1 X182.924 Y119.028 E8.7459
G1 X183.641 Y119.06 E8.83184
G1 X183.827 Y119.076 E8.85419
G1 X184.477 Y119.165 E8.93275
G1 X184.689 Y119.203 E8.95854
G1 X185.312 Y119.345 E9.03505
G1 X185.518 Y119.401 E9.06061
G1 X186.147 Y119.605 E9.13978
G1 X186.33 Y119.673 E9.16316
G1 X186.941 Y119.933 E9.24267
G1 X187.102 Y120.011 E9.26409
G1 X187.698 Y120.33 E9.34503
G1 X187.874 Y120.435 E9.36957
G1 X188.394 Y120.777 E9.44409
G1 X188.601 Y120.926 E9.47463
G1 X189.097 Y121.32 E9.55048
G1 X189.238 Y121.442 E9.5728
G1 X189.717 Y121.897 E9.65191
G1 X189.863 Y122.049 E9.67714
G1 X190.282 Y122.526 E9.75316
G1 X190.434 Y122.715 E9.7822
G1 X190.799 Y123.215 E9.85632
G1 X190.929 Y123.41 E9.88439
G1 X191.267 Y123.972 E9.96291
G1 X191.349 Y124.123 E9.98348
G1 X191.632 Y124.706 E10.06108
G1 X191.731 Y124.933 E10.09073
G1 X191.951 Y125.511 E10.16478
G1 X192.024 Y125.733 E10.19277
G1 X192.189 Y126.319 E10.26566
G1 X192.247 Y126.57 E10.29651
G1 X192.364 Y127.195 E10.37264
G1 X192.39 Y127.382 E10.39525
G1 X192.456 Y128.073 E10.47836
G1 X192.464 Y128.216 E10.49551
G1 X192.475 Y128.625 E10.5445
G1 X192.475 Y171.29 E15.65306
G1 X192.472 Y171.424 E15.66911
G1 X192.44 Y172.141 E15.75504
G1 X192.425 Y172.32 E15.77655
G1 X192.335 Y172.977 E15.85595
G1 X192.297 Y173.187 E15.88151
G1 X192.156 Y173.809 E15.95787
G1 X192.101 Y174.011 E15.98294
G1 X191.895 Y174.647 E16.06299
G1 X191.83 Y174.824 E16.08556
G1 X191.575 Y175.423 E16.16351
G1 X191.485 Y175.609 E16.18826
G1 X191.174 Y176.191 E16.26727
G1 X191.066 Y176.374 E16.29271
G1 X190.73 Y176.886 E16.36604
G1 X190.586 Y177.086 E16.39555
G1 X190.19 Y177.585 E16.47182
G1 X190.057 Y177.739 E16.49619
G1 X189.605 Y178.215 E16.57478
G1 X189.451 Y178.363 E16.60036
G1 X188.974 Y178.782 E16.67638
G1 X188.786 Y178.933 E16.70525
G1 X188.285 Y179.299 E16.77954
G1 X188.096 Y179.425 E16.80674
G1 X187.528 Y179.767 E16.88613
G1 X187.377 Y179.849 E16.9067
G1 X186.788 Y180.134 E16.98505
G1 X186.57 Y180.23 E17.01357
G1 X185.98 Y180.454 E17.08913
G1 X185.771 Y180.523 E17.11549
G1 X185.181 Y180.689 E17.18887
G1 X184.93 Y180.747 E17.21972
G1 X184.312 Y180.863 E17.29501
G1 X184.11 Y180.891 E17.31943
G1 X183.416 Y180.957 E17.4029
G1 X183.284 Y180.964 E17.41873
G1 X182.881 Y180.975 E17.467
G1 X117.201 Y180.975 E25.33129
G1 X117.076 Y180.972 E25.34626
G1 X116.359 Y180.94 E25.4322
G1 X116.173 Y180.924 E25.45455
G1 X115.523 Y180.835 E25.53311
G1 X115.311 Y180.797 E25.5589
G1 X114.688 Y180.655 E25.63541
G1 X114.482 Y180.599 E25.66097
G1 X113.853 Y180.395 E25.74014
G1 X113.67 Y180.327 E25.76352
G1 X113.071 Y180.072 E25.84147
G1 X112.887 Y179.983 E25.86594
G1 X112.302 Y179.67 E25.94538
G1 X112.126 Y179.565 E25.96992
G1 X111.606 Y179.223 E26.04445
G1 X111.399 Y179.074 E26.07498
G1 X110.903 Y178.68 E26.15083
G1 X110.761 Y178.557 E26.17332
G1 X110.283 Y178.103 E26.25226
G1 X110.132 Y177.945 E26.27843
G1 X109.707 Y177.461 E26.35555
G1 X109.57 Y177.29 E26.38179
G1 X109.199 Y176.782 E26.45711
G1 X109.071 Y176.59 E26.48474
G1 X108.733 Y176.028 E26.56326
G1 X108.651 Y175.877 E26.58384
G1 X108.361 Y175.279 E26.66341
G1 X108.269 Y175.067 E26.69109
G1 X108.043 Y174.472 E26.7673
G1 X107.976 Y174.267 E26.79312
G1 X107.811 Y173.68 E26.86613
G1 X107.753 Y173.43 E26.89686
G1 X107.636 Y172.805 E26.97299
G1 X107.608 Y172.601 E26.99765
G1 X107.543 Y171.912 E27.08051
G1 X107.536 Y171.785 E27.09574
G1 X107.525 Y171.375 E27.14485
G1 X107.525 Y128.701 E32.25449
G1 X107.528 Y128.576 E32.26946
G1 X107.56 Y127.859 E32.35539
G1 X107.575 Y127.68 E32.3769
G1 X107.665 Y127.023 E32.4563
G1 X107.703 Y126.811 E32.48209
G1 X107.844 Y126.191 E32.55822
G1 X107.899 Y125.989 E32.58329
G1 X108.105 Y125.353 E32.66334
G1 X108.17 Y125.176 E32.68592
G1 X108.425 Y124.577 E32.76387
G1 X108.515 Y124.391 E32.78861
G1 X108.826 Y123.809 E32.86762
G1 X108.935 Y123.626 E32.89312
G1 X109.277 Y123.106 E32.96765
G1 X109.426 Y122.899 E32.99819
G1 X109.81 Y122.415 E33.07216
G1 X109.943 Y122.261 E33.09653
G1 X110.397 Y121.783 E33.17546
G1 X110.549 Y121.637 E33.2007
G0 F9000 X110.4 Y121.78
G1 F1350 X110.4 Y178.214 E39.95791
G0 F9000 X112 Y179.482
G1 F1350 X112 Y120.517 E47.01817
G0 F9000 X113.6 Y119.705
G1 F1350 X113.6 Y180.297 E54.27324
G0 F9000 X115.2 Y180.771
G1 F1350 X115.2 Y119.228 E61.64218
G0 F9000 X116.8 Y119.033
G1 F1350 X116.8 Y180.959 E69.05699
G0 F9000 X118.4 Y180.975
G1 F1350 X118.4 Y119.025 E76.47466
G0 F9000 X120 Y119.025
G1 F1350 X120 Y180.975 E83.89234
G0 F9000 X121.6 Y180.975
G1 F1350 X121.6 Y119.025 E91.31001
G0 F9000 X123.2 Y119.025
G1 F1350 X123.2 Y180.975 E98.72769
G0 F9000 X124.8 Y180.975
G1 F1350 X124.8 Y119.025 E106.14536
G0 F9000 X126.4 Y119.025
G1 F1350 X126.4 Y180.975 E113.56304
G0 F9000 X128 Y180.975
G1 F1350 X128 Y119.025 E120.98071
G0 F9000 X129.6 Y119.025
G1 F1350 X129.6 Y180.975 E128.39839
G0 F9000 X131.2 Y180.975
G1 F1350 X131.2 Y119.025 E135.81606
G0 F9000 X132.8 Y119.025
G1 F1350 X132.8 Y180.975 E143.23374
G0 F9000 X134.4 Y180.975
G1 F1350 X134.4 Y119.025 E150.65141
G0 F9000 X136 Y119.025
G1 F1350 X136 Y180.975 E158.06909
G0 F9000 X137.6 Y180.975
G1 F1350 X137.6 Y119.025 E165.48676
G0 F9000 X139.2 Y119.025
G1 F1350 X139.2 Y180.975 E172.90444
G0 F9000 X140.8 Y180.975
G1 F1350 X140.8 Y119.025 E180.32212
G0 F9000 X142.4 Y119.025
G1 F1350 X142.4 Y180.975 E187.73979
G0 F9000 X144 Y180.975
G1 F1350 X144 Y119.025 E195.15747
G0 F9000 X145.6 Y119.025
G1 F1350 X145.6 Y180.975 E202.57514
G0 F9000 X147.2 Y180.975
G1 F1350 X147.2 Y119.025 E209.99282
G0 F9000 X148.8 Y119.025
G1 F1350 X148.8 Y180.975 E217.41049
G0 F9000 X150.4 Y180.975
G1 F1350 X150.4 Y119.025 E224.82817
G0 F9000 X152 Y119.025
G1 F1350 X152 Y180.975 E232.24584
G0 F9000 X153.6 Y180.975
G1 F1350 X153.6 Y119.025 E239.66352
G0 F9000 X155.2 Y119.025
G1 F1350 X155.2 Y180.975 E247.08119
G0 F9000 X156.8 Y180.975
G1 F1350 X156.8 Y119.025 E254.49887
G0 F9000 X158.4 Y119.025
G1 F1350 X158.4 Y180.975 E261.91654
G0 F9000 X160 Y180.975
G1 F1350 X160 Y119.025 E269.33422
G0 F9000 X161.6 Y119.025
G1 F1350 X161.6 Y180.975 E276.75189
G0 F9000 X163.2 Y180.975
G1 F1350 X163.2 Y119.025 E284.16957
G0 F9000 X164.8 Y119.025
G1 F1350 X164.8 Y180.975 E291.58725
G0 F9000 X166.4 Y180.975
G1 F1350 X166.4 Y119.025 E299.00492
G0 F9000 X168 Y119.025
G1 F1350 X168 Y180.975 E306.4226
G0 F9000 X169.6 Y180.975
G1 F1350 X169.6 Y119.025 E313.84027
G0 F9000 X171.2 Y119.025
G1 F1350 X171.2 Y180.975 E321.25795
G0 F9000 X172.8 Y180.975
G1 F1350 X172.8 Y119.025 E328.67562
G0 F9000 X174.4 Y119.025
G1 F1350 X174.4 Y180.975 E336.0933
G0 F9000 X176 Y180.975
G1 F1350 X176 Y119.025 E343.51097
G0 F9000 X177.6 Y119.025
G1 F1350 X177.6 Y180.975 E350.92865
G0 F9000 X179.2 Y180.975
G1 F1350 X179.2 Y119.025 E358.34632
G0 F9000 X180.8 Y119.025
G1 F1350 X180.8 Y180.975 E365.764
G0 F9000 X182.4 Y180.975
G1 F1350 X182.4 Y119.025 E373.18167
G0 F9000 X184 Y119.1
G1 F1350 X184 Y180.902 E380.58163
G0 F9000 X185.6 Y180.572
G1 F1350 X185.6 Y119.428 E387.9028
G0 F9000 X187.2 Y120.064
G1 F1350 X187.2 Y179.935 E395.07154
G0 F9000 X188.8 Y178.922
G1 F1350 X188.8 Y121.085 E401.99674
G0 F9000 X190.4 Y122.673
G1 F1350 X190.4 Y177.321 E408.5401
G0 F9000 X192 Y174.323
G1 F1350 X192 Y125.661 E414.36671
G1 F2700 E404.36671
G0 F9000 X192.957 Y125.164
G0 X192.3 Y123.644
G0 X191.677 Y122.613
G0 X190.654 Y121.335
G0 X189.77 Y120.496
G0 X188.432 Y119.528
G0 X187.372 Y118.96
G0 X185.824 Y118.381
G0 X184.651 Y118.115
G0 X182.815 Y117.961
G0 X116.499 Y117.983
G0 X114.844 Y118.212
G0 X113.664 Y118.543
G0 X112.144 Y119.2
G0 X111.113 Y119.823
G0 X109.835 Y120.846
G0 X108.996 Y121.73
G0 X108.028 Y123.068
G0 X108.8 Y123.857
G1 F2700 E414.36671
G1 F1350 X108.8 Y176.139 E420.62678
G0 F300 X108.8 Y176.139 Z0.66
G0 F9000 X108.268 Y175.066
;TIME_ELAPSED:168.855469
;LAYER:-6
M140 S60
;TYPE:SUPPORT
G1 F1350 X108.36 Y175.278 E420.64984
G1 X108.651 Y175.875 E420.71611
G1 X108.733 Y176.027 E420.73334
G1 X109.07 Y176.589 E420.79872
G1 X109.199 Y176.781 E420.8218
G1 X109.569 Y177.289 E420.88451
G1 X109.706 Y177.46 E420.90638
G1 X110.131 Y177.944 E420.97065
G1 X110.283 Y178.101 E420.99245
G1 X110.76 Y178.556 E421.05823
G1 X110.903 Y178.679 E421.07705
G1 X111.399 Y179.073 E421.14025
G1 X111.606 Y179.222 E421.1657
G1 X112.125 Y179.564 E421.22772
G1 X112.301 Y179.669 E421.24817
G1 X112.886 Y179.982 E421.31437
G1 X113.071 Y180.071 E421.33485
G1 X113.67 Y180.326 E421.39981
G1 X113.852 Y180.394 E421.4192
G1 X113.96 Y180.428 E421.4305
G1 X114.482 Y180.597 E421.48524
G1 X114.688 Y180.654 E421.50657
G1 X115.31 Y180.795 E421.57021
G1 X115.522 Y180.834 E421.59172
G1 X115.82 Y180.874 E421.62172
G1 X107.617 Y172.671 E422.77925
G1 X107.608 Y172.599 E422.78649
G1 X107.543 Y171.911 E422.85545
G1 X107.536 Y171.783 E422.86824
G1 X107.525 Y171.374 E422.90906
G1 X107.525 Y171.165 E422.92992
G1 X117.335 Y180.974 E424.31414
G1 X118.749 Y180.974 E424.45523
G1 X107.525 Y169.75 E426.03906
G1 X107.525 Y168.336 E426.18015
G1 X120.163 Y180.974 E427.96351
G1 X121.577 Y180.974 E428.1046
G1 X107.525 Y166.922 E430.08749
G1 X107.525 Y165.508 E430.22858
G1 X122.992 Y180.974 E432.41107
G1 X124.406 Y180.974 E432.55215
G1 X107.525 Y164.094 E434.93418
G1 X107.525 Y162.679 E435.07537
G1 X125.82 Y180.974 E437.65699
G1 X127.234 Y180.974 E437.79808
G1 X107.525 Y161.265 E440.57923
G1 X107.525 Y159.851 E440.72032
G1 X128.648 Y180.974 E443.701
G1 X130.063 Y180.974 E443.84219
G1 X107.525 Y158.437 E447.02248
G1 X107.525 Y157.022 E447.16367
G1 X131.477 Y180.974 E450.54355
G1 X132.891 Y180.974 E450.68464
G1 X107.525 Y155.608 E454.26406
G1 X107.525 Y154.194 E454.40515
G1 X134.305 Y180.974 E458.18409
G1 X135.719 Y180.974 E458.32518
G1 X107.525 Y152.78 E462.30366
G1 X107.525 Y151.366 E462.44475
G1 X137.134 Y180.974 E466.62283
G1 X138.548 Y180.974 E466.76392
G1 X107.525 Y149.951 E471.1416
G1 X107.525 Y148.537 E471.28269
G1 X139.962 Y180.974 E475.8599
G1 X141.376 Y180.974 E476.00099
G1 X107.525 Y147.123 E480.77773
G1 X107.525 Y145.709 E480.91882
G1 X142.791 Y180.974 E485.89516
G1 X144.205 Y180.974 E486.03625
G1 X107.525 Y144.295 E491.21213
G1 X107.525 Y142.88 E491.35332
G1 X145.619 Y180.974 E496.72879
G1 X147.033 Y180.974 E496.86988
G1 X107.525 Y141.466 E502.44489
G1 X107.525 Y140.052 E502.58598
G1 X148.447 Y180.974 E508.36051
G1 X149.862 Y180.974 E508.5017
G1 X107.525 Y138.638 E514.47584
G1 X107.525 Y137.223 E514.61703
G1 X151.276 Y180.974 E520.79077
G1 X152.69 Y180.974 E520.93186
G1 X107.525 Y135.809 E527.30513
G1 X107.525 Y134.395 E527.44622
G1 X154.104 Y180.974 E534.01902
G1 X155.518 Y180.974 E534.16011
G1 X107.525 Y132.981 E540.93244
G1 X107.525 Y131.567 E541.07353
G1 X156.933 Y180.974 E548.04546
G1 X158.347 Y180.974 E548.18655
G1 X107.525 Y130.152 E555.35808
G1 X107.525 Y128.738 E555.49917
G1 X159.761 Y180.974 E562.87023
G1 X161.175 Y180.974 E563.01132
G1 X107.611 Y127.41 E570.56978
G1 X107.664 Y127.022 E570.60886
G1 X107.702 Y126.81 E570.63035
G1 X107.836 Y126.221 E570.69062
G1 X162.59 Y180.974 E578.41693
G1 X164.004 Y180.974 E578.55802
G1 X108.179 Y125.15 E586.43546
G1 X108.424 Y124.576 E586.49773
G1 X108.514 Y124.39 E586.51835
G1 X108.625 Y124.182 E586.54187
G1 X165.418 Y180.974 E594.55591
G1 X166.832 Y180.974 E594.697
G1 X109.151 Y123.293 E602.83641
G1 X109.276 Y123.105 E602.85894
G1 X109.426 Y122.897 E602.88453
G1 X109.754 Y122.482 E602.93731
G1 X168.246 Y180.974 E611.19116
G1 X169.661 Y180.974 E611.33235
G1 X110.433 Y121.747 E619.68999
G1 X110.549 Y121.636 E619.70601
G1 X111.026 Y121.217 E619.76936
G1 X111.188 Y121.087 E619.79009
G1 X171.075 Y180.974 E628.24079
G1 X172.489 Y180.974 E628.38188
G1 X112.019 Y120.505 E636.91478
G1 X112.472 Y120.232 E636.96755
G1 X112.623 Y120.15 E636.9847
G1 X112.931 Y120.002 E637.01879
G1 X173.903 Y180.974 E645.6226
G1 X175.317 Y180.974 E645.76369
G1 X113.925 Y119.582 E654.42676
G1 X114.02 Y119.545 E654.43694
G1 X114.229 Y119.476 E654.4589
G1 X114.818 Y119.31 E654.51996
G1 X115.021 Y119.264 E654.54073
G1 X176.732 Y180.974 E663.24875
G1 X178.146 Y180.974 E663.38983
G1 X116.246 Y119.074 E672.12459
G1 X116.584 Y119.042 E672.15847
G1 X116.715 Y119.035 E672.17156
G1 X117.119 Y119.024 E672.21189
G1 X117.61 Y119.024 E672.26088
G1 X179.56 Y180.974 E681.00269
G1 X180.974 Y180.974 E681.14378
G1 X119.024 Y119.024 E689.8856
G1 X120.438 Y119.024 E690.02669
G1 X182.389 Y180.974 E698.76857
G1 X182.88 Y180.975 E698.81756
G1 X183.283 Y180.964 E698.85779
G1 X183.415 Y180.957 E698.87098
G1 X183.753 Y180.924 E698.90487
G1 X121.852 Y119.024 E707.63969
G1 X123.267 Y119.024 E707.78088
G1 X184.977 Y180.735 E716.4889
G1 X185.18 Y180.689 E716.50967
G1 X185.769 Y180.522 E716.57076
G1 X185.978 Y180.453 E716.59272
G1 X186.073 Y180.416 E716.60289
G1 X124.681 Y119.024 E725.26597
G1 X126.095 Y119.024 E725.40706
G1 X187.068 Y179.997 E734.011
G1 X187.376 Y179.848 E734.04514
G1 X187.526 Y179.767 E734.06215
G1 X187.979 Y179.494 E734.11493
G1 X127.509 Y119.024 E742.6479
G1 X128.923 Y119.024 E742.78899
G1 X188.81 Y178.911 E751.23969
G1 X188.972 Y178.782 E751.26035
G1 X189.45 Y178.362 E751.32384
G1 X189.565 Y178.251 E751.33979
G1 X130.338 Y119.024 E759.69736
G1 X131.752 Y119.024 E759.83845
G1 X190.244 Y177.516 E768.0923
G1 X190.585 Y177.086 E768.14706
G1 X190.729 Y176.885 E768.17174
G1 X190.848 Y176.705 E768.19327
G1 X133.166 Y119.024 E776.33275
G1 X134.58 Y119.024 E776.47384
G1 X191.373 Y175.817 E784.48794
G1 X191.484 Y175.608 E784.51156
G1 X191.574 Y175.422 E784.53217
G1 X191.819 Y174.849 E784.59436
G1 X135.995 Y119.024 E792.4718
G1 X137.409 Y119.024 E792.61289
G1 X192.162 Y173.777 E800.33913
G1 X192.296 Y173.187 E800.39949
G1 X192.334 Y172.976 E800.42089
G1 X192.388 Y172.589 E800.45988
G1 X138.823 Y119.024 E808.01848
G1 X140.237 Y119.024 E808.15957
G1 X192.474 Y171.261 E815.53077
G1 X192.474 Y169.847 E815.67186
G1 X141.651 Y119.024 E822.84353
G1 X143.066 Y119.024 E822.98472
G1 X192.474 Y168.432 E829.95673
G1 X192.474 Y167.018 E830.09782
G1 X144.48 Y119.024 E836.87029
G1 X145.894 Y119.024 E837.01138
G1 X192.474 Y165.604 E843.58432
G1 X192.474 Y164.19 E843.72541
G1 X147.308 Y119.024 E850.09882
G1 X148.722 Y119.024 E850.23991
G1 X192.474 Y162.775 E856.41372
G1 X192.474 Y161.361 E856.55481
G1 X150.137 Y119.024 E862.52901
G1 X151.551 Y119.024 E862.6701
G1 X192.474 Y159.947 E868.44478
G1 X192.474 Y158.533 E868.58587
G1 X152.965 Y119.024 E874.16102
G1 X154.379 Y119.024 E874.30211
G1 X192.474 Y157.119 E879.67772
G1 X192.474 Y155.704 E879.81891
G1 X155.794 Y119.024 E884.99486
G1 X157.208 Y119.024 E885.13595
G1 X192.474 Y154.29 E890.11236
G1 X192.474 Y152.876 E890.25345
G1 X158.622 Y119.024 E895.03033
G1 X160.036 Y119.024 E895.17142
G1 X192.474 Y151.462 E899.74877
G1 X192.474 Y150.048 E899.88986
G1 X161.45 Y119.024 E904.26768
G1 X162.865 Y119.024 E904.40887
G1 X192.474 Y148.633 E908.58702
G1 X192.474 Y147.219 E908.72811
G1 X164.279 Y119.024 E912.70673
G1 X165.693 Y119.024 E912.84782
G1 X192.474 Y145.805 E916.62691
G1 X192.474 Y144.391 E916.768
G1 X167.107 Y119.024 E920.34756
G1 X168.521 Y119.024 E920.48865
G1 X192.474 Y142.976 E923.8686
G1 X192.474 Y141.562 E924.00969
G1 X169.936 Y119.024 E927.19005
G1 X171.35 Y119.024 E927.33114
G1 X192.474 Y140.148 E930.31196
G1 X192.474 Y138.734 E930.45305
G1 X172.764 Y119.024 E933.23435
G1 X174.178 Y119.024 E933.37544
G1 X192.474 Y137.32 E935.9572
