;FLAVOR:Marlin
;TIME:7108
;Filament used: 5.67444m
;Layer height: 0.2
;MINX:106.336
;MINY:117.836
;MINZ:0.36
;MAXX:193.642
;MAXY:182.142
;MAXZ:7.16
;Generated with Cura_SteamEngine 4.7.1
M140 S70
M105
M190 S70
M104 S200
M105
M109 S200
M82 ;absolute extrusion mode
;G21
G92 E0
G92 E0
G1 F2700 E-10
;LAYER_COUNT:29
;LAYER:-7
M107
M204 S500
G0 F9000 X110.424 Y121.512 Z0.36
;TYPE:SUPPORT-INTERFACE
G1 F2700 E0
G1 F1350 X110.901 Y121.093 E0.07602
G1 X111.09 Y120.941 E0.10506
G1 X111.59 Y120.576 E0.17918
G1 X111.779 Y120.45 E0.20638
G1 X112.347 Y120.108 E0.28577
G1 X112.498 Y120.026 E0.30634
G1 X113.087 Y119.741 E0.38469
G1 X113.308 Y119.644 E0.41359
G1 X113.895 Y119.421 E0.48877
G1 X114.104 Y119.352 E0.51513
G1 X114.694 Y119.186 E0.58852
G1 X114.945 Y119.128 E0.61936
G1 X115.563 Y119.012 E0.69465
G1 X115.765 Y118.984 E0.71907
G1 X116.459 Y118.918 E0.80254
G1 X116.591 Y118.911 E0.81837
G1 X116.994 Y118.9 E0.86664
G1 X182.924 Y118.9 E8.76087
G1 X183.049 Y118.903 E8.77584
G1 X183.766 Y118.935 E8.86177
G1 X183.952 Y118.951 E8.88413
G1 X184.602 Y119.04 E8.96268
G1 X184.814 Y119.078 E8.98847
G1 X185.437 Y119.22 E9.06498
G1 X185.643 Y119.276 E9.09054
G1 X186.272 Y119.48 E9.16972
G1 X186.455 Y119.548 E9.19309
G1 X187.066 Y119.808 E9.2726
G1 X187.227 Y119.886 E9.29402
G1 X187.823 Y120.205 E9.37496
G1 X187.999 Y120.31 E9.3995
G1 X188.519 Y120.652 E9.47402
G1 X188.726 Y120.801 E9.50456
G1 X189.222 Y121.195 E9.58041
G1 X189.363 Y121.317 E9.60273
G1 X189.842 Y121.772 E9.68184
G1 X189.988 Y121.924 E9.70708
G1 X190.407 Y122.401 E9.7831
G1 X190.559 Y122.59 E9.81214
G1 X190.924 Y123.09 E9.88626
G1 X191.054 Y123.285 E9.91432
G1 X191.392 Y123.847 E9.99284
G1 X191.474 Y123.998 E10.01342
G1 X191.757 Y124.581 E10.09102
G1 X191.856 Y124.808 E10.12067
G1 X192.076 Y125.386 E10.19472
G1 X192.149 Y125.608 E10.2227
G1 X192.314 Y126.194 E10.29559
G1 X192.372 Y126.445 E10.32644
G1 X192.489 Y127.07 E10.40258
G1 X192.515 Y127.257 E10.42518
G1 X192.581 Y127.948 E10.5083
G1 X192.589 Y128.091 E10.52545
G1 X192.6 Y128.5 E10.57444
G1 X192.6 Y171.415 E15.71293
G1 X192.597 Y171.549 E15.72898
G1 X192.565 Y172.266 E15.81491
G1 X192.55 Y172.445 E15.83642
G1 X192.46 Y173.102 E15.91582
G1 X192.422 Y173.312 E15.94137
G1 X192.281 Y173.934 E16.01774
G1 X192.226 Y174.136 E16.04281
G1 X192.02 Y174.772 E16.12285
G1 X191.955 Y174.949 E16.14543
G1 X191.7 Y175.548 E16.22338
G1 X191.61 Y175.734 E16.24812
G1 X191.299 Y176.316 E16.32714
G1 X191.191 Y176.499 E16.35258
G1 X190.855 Y177.011 E16.42591
G1 X190.711 Y177.211 E16.45541
G1 X190.315 Y177.71 E16.53169
G1 X190.182 Y177.864 E16.55606
G1 X189.73 Y178.34 E16.63465
G1 X189.576 Y178.488 E16.66023
G1 X189.099 Y178.907 E16.73625
G1 X188.911 Y179.058 E16.76512
G1 X188.41 Y179.424 E16.83941
G1 X188.221 Y179.55 E16.86661
G1 X187.653 Y179.892 E16.94599
G1 X187.502 Y179.974 E16.96657
G1 X186.913 Y180.259 E17.04492
G1 X186.695 Y180.355 E17.07344
G1 X186.105 Y180.579 E17.149
G1 X185.896 Y180.648 E17.17536
G1 X185.306 Y180.814 E17.24874
G1 X185.055 Y180.872 E17.27959
G1 X184.437 Y180.988 E17.35488
G1 X184.235 Y181.016 E17.3793
G1 X183.541 Y181.082 E17.46277
G1 X183.409 Y181.089 E17.4786
G1 X183.006 Y181.1 E17.52687
G1 X117.076 Y181.1 E25.42109
G1 X116.951 Y181.097 E25.43607
G1 X116.234 Y181.065 E25.522
G1 X116.048 Y181.049 E25.54436
G1 X115.398 Y180.96 E25.62291
G1 X115.186 Y180.922 E25.6487
G1 X114.563 Y180.78 E25.72521
G1 X114.357 Y180.724 E25.75077
G1 X113.728 Y180.52 E25.82994
G1 X113.545 Y180.452 E25.85332
G1 X112.946 Y180.197 E25.93127
G1 X112.762 Y180.108 E25.95574
G1 X112.177 Y179.795 E26.03519
G1 X112.001 Y179.69 E26.05973
G1 X111.481 Y179.348 E26.13425
G1 X111.274 Y179.199 E26.16479
G1 X110.778 Y178.805 E26.24063
G1 X110.636 Y178.682 E26.26313
G1 X110.158 Y178.228 E26.34206
G1 X110.007 Y178.07 E26.36823
G1 X109.582 Y177.586 E26.44535
G1 X109.445 Y177.415 E26.47159
G1 X109.074 Y176.907 E26.54691
G1 X108.946 Y176.715 E26.57454
G1 X108.608 Y176.153 E26.65306
G1 X108.526 Y176.002 E26.67364
G1 X108.236 Y175.404 E26.75322
G1 X108.144 Y175.192 E26.78089
G1 X107.918 Y174.597 E26.8571
G1 X107.851 Y174.392 E26.88292
G1 X107.686 Y173.805 E26.95593
G1 X107.628 Y173.555 E26.98666
G1 X107.511 Y172.93 E27.06279
G1 X107.483 Y172.726 E27.08745
G1 X107.418 Y172.037 E27.17031
G1 X107.411 Y171.91 E27.18554
G1 X107.4 Y171.5 E27.23465
G1 X107.4 Y128.576 E32.37422
G1 X107.403 Y128.451 E32.38919
G1 X107.435 Y127.734 E32.47513
G1 X107.45 Y127.555 E32.49664
G1 X107.54 Y126.898 E32.57604
G1 X107.578 Y126.686 E32.60183
G1 X107.719 Y126.066 E32.67796
G1 X107.774 Y125.864 E32.70303
G1 X107.98 Y125.228 E32.78308
G1 X108.045 Y125.051 E32.80565
G1 X108.3 Y124.452 E32.8836
G1 X108.39 Y124.266 E32.90835
G1 X108.701 Y123.684 E32.98736
G1 X108.81 Y123.501 E33.01286
G1 X109.152 Y122.981 E33.08738
G1 X109.301 Y122.774 E33.11792
G1 X109.685 Y122.29 E33.1919
G1 X109.818 Y122.136 E33.21626
G1 X110.272 Y121.658 E33.2952
G1 X110.424 Y121.512 E33.32043
G0 F9000 X110.4 Y121.535
G1 F1350 X110.4 Y178.457 E40.13607
G0 F9000 X112 Y179.689
G1 F1350 X112 Y120.316 E47.24519
G0 F9000 X113.6 Y119.533
G1 F1350 X113.6 Y180.472 E54.54181
G0 F9000 X115.2 Y180.924
G1 F1350 X115.2 Y119.08 E61.94679
G0 F9000 X116.8 Y118.905
G1 F1350 X116.8 Y181.09 E69.39261
G0 F9000 X118.4 Y181.1
G1 F1350 X118.4 Y118.9 E76.84022
G0 F9000 X120 Y118.9
G1 F1350 X120 Y181.1 E84.28783
G0 F9000 X121.6 Y181.1
G1 F1350 X121.6 Y118.9 E91.73544
G0 F9000 X123.2 Y118.9
G1 F1350 X123.2 Y181.1 E99.18304
G0 F9000 X124.8 Y181.1
G1 F1350 X124.8 Y118.9 E106.63065
G0 F9000 X126.4 Y118.9
G1 F1350 X126.4 Y181.1 E114.07826
G0 F9000 X128 Y181.1
G1 F1350 X128 Y118.9 E121.52587
G0 F9000 X129.6 Y118.9
G1 F1350 X129.6 Y181.1 E128.97348
G0 F9000 X131.2 Y181.1
G1 F1350 X131.2 Y118.9 E136.42109
G0 F9000 X132.8 Y118.9
G1 F1350 X132.8 Y181.1 E143.8687
G0 F9000 X134.4 Y181.1
G1 F1350 X134.4 Y118.9 E151.31631
G0 F9000 X136 Y118.9
G1 F1350 X136 Y181.1 E158.76392
G0 F9000 X137.6 Y181.1
G1 F1350 X137.6 Y118.9 E166.21153
G0 F9000 X139.2 Y118.9
G1 F1350 X139.2 Y181.1 E173.65914
G0 F9000 X140.8 Y181.1
G1 F1350 X140.8 Y118.9 E181.10675
G0 F9000 X142.4 Y118.9
G1 F1350 X142.4 Y181.1 E188.55436
G0 F9000 X144 Y181.1
G1 F1350 X144 Y118.9 E196.00197
G0 F9000 X145.6 Y118.9
G1 F1350 X145.6 Y181.1 E203.44958
G0 F9000 X147.2 Y181.1
G1 F1350 X147.2 Y118.9 E210.89719
G0 F9000 X148.8 Y118.9
G1 F1350 X148.8 Y181.1 E218.3448
G0 F9000 X150.4 Y181.1
G1 F1350 X150.4 Y118.9 E225.79241
G0 F9000 X152 Y118.9
G1 F1350 X152 Y181.1 E233.24001
G0 F9000 X153.6 Y181.1
G1 F1350 X153.6 Y118.9 E240.68762
G0 F9000 X155.2 Y118.9
G1 F1350 X155.2 Y181.1 E248.13523
G0 F9000 X156.8 Y181.1
G1 F1350 X156.8 Y118.9 E255.58284
G0 F9000 X158.4 Y118.9
G1 F1350 X158.4 Y181.1 E263.03045
G0 F9000 X160 Y181.1
G1 F1350 X160 Y118.9 E270.47806
G0 F9000 X161.6 Y118.9
G1 F1350 X161.6 Y181.1 E277.92567
G0 F9000 X163.2 Y181.1
G1 F1350 X163.2 Y118.9 E285.37328
G0 F9000 X164.8 Y118.9
G1 F1350 X164.8 Y181.1 E292.82089
G0 F9000 X166.4 Y181.1
G1 F1350 X166.4 Y118.9 E300.2685
G0 F9000 X168 Y118.9
G1 F1350 X168 Y181.1 E307.71611
G0 F9000 X169.6 Y181.1
G1 F1350 X169.6 Y118.9 E315.16372
G0 F9000 X171.2 Y118.9
G1 F1350 X171.2 Y181.1 E322.61133
G0 F9000 X172.8 Y181.1
G1 F1350 X172.8 Y118.9 E330.05894
G0 F9000 X174.4 Y118.9
G1 F1350 X174.4 Y181.1 E337.50655
G0 F9000 X176 Y181.1
G1 F1350 X176 Y118.9 E344.95416
G0 F9000 X177.6 Y118.9
G1 F1350 X177.6 Y181.1 E352.40177
G0 F9000 X179.2 Y181.1
G1 F1350 X179.2 Y118.9 E359.84938
G0 F9000 X180.8 Y118.9
G1 F1350 X180.8 Y181.1 E367.29698
G0 F9000 X182.4 Y181.1
G1 F1350 X182.4 Y118.9 E374.74459
G0 F9000 X184 Y118.958
G1 F1350 X184 Y181.039 E382.17795
G0 F9000 X185.6 Y180.732
G1 F1350 X185.6 Y119.265 E389.5378
G0 F9000 X187.2 Y119.873
G1 F1350 X187.2 Y180.121 E396.75168
G0 F9000 X188.8 Y179.14
G1 F1350 X188.8 Y120.86 E403.72992
G0 F9000 X190.4 Y122.394
G1 F1350 X190.4 Y177.603 E410.34046
G0 F9000 X192 Y174.827
G1 F1350 X192 Y125.187 E416.28417
G1 F2700 E406.28417
G0 F9000 X192.995 Y124.809
G0 X192.311 Y123.311
G0 X191.398 Y121.935
G0 X190.593 Y121.017
G0 X189.361 Y119.946
G0 X188.348 Y119.279
G0 X186.851 Y118.559
G0 X185.701 Y118.189
G0 X184.073 Y117.894
G0 X182.94 Y117.836
G0 X116.374 Y117.858
G0 X114.719 Y118.087
G0 X113.539 Y118.418
G0 X112.019 Y119.075
G0 X110.988 Y119.698
G0 X109.71 Y120.721
G0 X108.871 Y121.605
G0 X107.91 Y122.931
G0 X108.8 Y123.517
G1 F2700 E416.28417
G1 F1350 X108.8 Y176.472 E422.62482
G0 F300 X108.8 Y176.472 Z0.66
G0 F9000 X109.444 Y177.414
;TIME_ELAPSED:169.569619
;LAYER:-6
M140 S60
;TYPE:SUPPORT
G1 F1350 X109.581 Y177.585 E422.64668
G1 X110.007 Y178.069 E422.71102
G1 X110.158 Y178.226 E422.73275
G1 X110.636 Y178.68 E422.79853
G1 X110.778 Y178.804 E422.81734
G1 X111.273 Y179.198 E422.88047
G1 X111.425 Y179.307 E422.89913
G1 X109.207 Y177.089 E423.21212
G1 X109.074 Y176.906 E423.23469
G1 X108.946 Y176.713 E423.2578
G1 X108.608 Y176.152 E423.32315
G1 X108.526 Y176 E423.34038
G1 X108.236 Y175.402 E423.4067
G1 X108.143 Y175.191 E423.42971
G1 X107.917 Y174.596 E423.49321
G1 X107.85 Y174.39 E423.51483
G1 X107.822 Y174.29 E423.52519
G1 X114.206 Y180.674 E424.42604
G1 X114.356 Y180.723 E424.44179
G1 X114.563 Y180.779 E424.46318
G1 X115.185 Y180.921 E424.52684
G1 X115.397 Y180.959 E424.54834
G1 X115.985 Y181.039 E424.60755
G1 X107.463 Y172.517 E425.81009
G1 X107.418 Y172.036 E425.8583
G1 X107.41 Y171.908 E425.87109
G1 X107.4 Y171.499 E425.91192
G1 X107.4 Y171.039 E425.95782
G1 X117.459 Y181.099 E427.37732
G1 X118.873 Y181.099 E427.51841
G1 X107.4 Y169.625 E429.13744
G1 X107.4 Y168.211 E429.27853
G1 X120.288 Y181.099 E431.09717
G1 X121.702 Y181.099 E431.23826
G1 X107.4 Y166.797 E433.25643
G1 X107.4 Y165.383 E433.39751
G1 X123.116 Y181.099 E435.61521
G1 X124.53 Y181.099 E435.7563
G1 X107.4 Y163.968 E438.1736
G1 X107.4 Y162.554 E438.31469
G1 X125.944 Y181.099 E440.93152
G1 X127.359 Y181.099 E441.07271
G1 X107.4 Y161.14 E443.88914
G1 X107.4 Y159.726 E444.03023
G1 X128.773 Y181.099 E447.04619
G1 X130.187 Y181.099 E447.18728
G1 X107.4 Y158.312 E450.40277
G1 X107.4 Y156.897 E450.54396
G1 X131.601 Y181.099 E453.95905
G1 X133.015 Y181.099 E454.10014
G1 X107.4 Y155.483 E457.71477
G1 X107.4 Y154.069 E457.85586
G1 X134.43 Y181.099 E461.67008
G1 X135.844 Y181.099 E461.81117
G1 X107.4 Y152.655 E465.82493
G1 X107.4 Y151.24 E465.96612
G1 X137.258 Y181.099 E470.17947
G1 X138.672 Y181.099 E470.32056
G1 X107.4 Y149.826 E474.73345
G1 X107.4 Y148.412 E474.87454
G1 X140.087 Y181.099 E479.48703
G1 X141.501 Y181.099 E479.62812
G1 X107.4 Y146.998 E484.44014
G1 X107.4 Y145.584 E484.58123
G1 X142.915 Y181.099 E489.59278
G1 X144.329 Y181.099 E489.73387
G1 X107.4 Y144.169 E494.94502
G1 X107.4 Y142.755 E495.08611
G1 X145.743 Y181.099 E500.49679
G1 X147.158 Y181.099 E500.63798
G1 X107.4 Y141.341 E506.24826
G1 X107.4 Y139.927 E506.38935
G1 X148.572 Y181.099 E512.19916
G1 X149.986 Y181.099 E512.34025
G1 X107.4 Y138.513 E518.3496
G1 X107.4 Y137.098 E518.49079
G1 X151.4 Y181.099 E524.69973
G1 X152.814 Y181.099 E524.84082
G1 X107.4 Y135.684 E531.2493
G1 X107.4 Y134.27 E531.39039
G1 X154.229 Y181.099 E537.99847
G1 X155.643 Y181.099 E538.13956
G1 X107.4 Y132.856 E544.94716
G1 X107.4 Y131.441 E545.08835
G1 X157.057 Y181.099 E552.09556
G1 X158.471 Y181.099 E552.23665
G1 X107.4 Y130.027 E559.44339
G1 X107.4 Y128.613 E559.58448
G1 X159.886 Y181.099 E566.99082
G1 X161.3 Y181.099 E567.13191
G1 X107.485 Y127.284 E574.72579
G1 X107.539 Y126.897 E574.76478
G1 X107.577 Y126.685 E574.78627
G1 X107.711 Y126.096 E574.84654
G1 X162.714 Y181.099 E582.60806
G1 X164.128 Y181.099 E582.74915
G1 X108.054 Y125.024 E590.66187
G1 X108.299 Y124.451 E590.72405
G1 X108.389 Y124.265 E590.74467
G1 X108.5 Y124.056 E590.76828
G1 X165.542 Y181.099 E598.81759
G1 X166.957 Y181.099 E598.95878
G1 X109.026 Y123.168 E607.13347
G1 X109.151 Y122.98 E607.156
G1 X109.301 Y122.772 E607.18159
G1 X109.629 Y122.357 E607.23437
G1 X168.371 Y181.099 E615.5235
G1 X169.785 Y181.099 E615.66459
G1 X110.308 Y121.622 E624.05744
G1 X110.423 Y121.511 E624.07338
G1 X110.901 Y121.092 E624.13681
G1 X111.063 Y120.962 E624.15753
G1 X171.199 Y181.099 E632.64344
G1 X172.613 Y181.099 E632.78453
G1 X111.894 Y120.379 E641.35271
G1 X112.347 Y120.107 E641.40543
G1 X112.497 Y120.025 E641.42249
G1 X112.806 Y119.877 E641.45668
G1 X174.028 Y181.099 E650.09576
G1 X175.442 Y181.099 E650.23685
G1 X113.8 Y119.457 E658.9352
G1 X113.895 Y119.42 E658.94538
G1 X114.104 Y119.351 E658.96734
G1 X114.694 Y119.185 E659.02849
G1 X114.896 Y119.139 E659.04917
G1 X176.856 Y181.099 E667.79239
G1 X178.27 Y181.099 E667.93348
G1 X116.121 Y118.949 E676.70345
G1 X116.459 Y118.916 E676.73733
G1 X116.591 Y118.91 E676.75052
G1 X116.994 Y118.899 E676.79074
G1 X117.485 Y118.9 E676.83974
G1 X179.685 Y181.099 E685.61676
G1 X181.099 Y181.099 E685.75785
G1 X118.9 Y118.9 E694.5348
G1 X120.314 Y118.9 E694.67589
G1 X182.513 Y181.099 E703.45284
G1 X183.004 Y181.099 E703.50183
G1 X183.408 Y181.089 E703.54215
G1 X183.54 Y181.082 E703.55534
G1 X183.878 Y181.049 E703.58923
G1 X121.728 Y118.9 E712.3592
G1 X123.142 Y118.9 E712.50028
G1 X185.102 Y180.86 E721.24351
G1 X185.305 Y180.813 E721.2643
G1 X185.894 Y180.648 E721.32533
G1 X186.104 Y180.578 E721.34742
G1 X186.198 Y180.542 E721.35747
G1 X124.556 Y118.9 E730.05582
G1 X125.971 Y118.9 E730.19701
G1 X187.193 Y180.122 E738.83609
G1 X187.501 Y179.973 E738.87023
G1 X187.651 Y179.892 E738.88724
G1 X188.104 Y179.619 E738.94002
G1 X127.385 Y118.9 E747.50812
G1 X128.799 Y118.9 E747.64921
G1 X188.936 Y179.036 E756.13512
G1 X189.098 Y178.907 E756.15579
G1 X189.575 Y178.487 E756.2192
G1 X189.69 Y178.376 E756.23515
G1 X130.213 Y118.9 E764.62793
G1 X131.627 Y118.9 E764.76902
G1 X190.369 Y177.641 E773.05808
G1 X190.71 Y177.211 E773.11283
G1 X190.854 Y177.01 E773.13751
G1 X190.973 Y176.831 E773.15895
G1 X133.042 Y118.9 E781.33364
G1 X134.456 Y118.9 E781.47473
G1 X191.498 Y175.942 E789.52398
G1 X191.609 Y175.733 E789.54759
G1 X191.699 Y175.547 E789.56821
G1 X191.944 Y174.974 E789.63039
G1 X135.87 Y118.9 E797.54303
G1 X137.284 Y118.9 E797.68412
G1 X192.287 Y173.903 E805.44564
G1 X192.42 Y173.311 E805.50618
G1 X192.459 Y173.101 E805.5275
G1 X192.513 Y172.714 E805.56649
G1 X138.698 Y118.9 E813.16029
G1 X140.113 Y118.9 E813.30148
G1 X192.599 Y171.386 E820.70782
G1 X192.599 Y169.972 E820.84891
G1 X141.527 Y118.9 E828.05572
G1 X142.941 Y118.9 E828.19681
G1 X192.599 Y168.557 E835.20402
G1 X192.599 Y167.143 E835.34511
G1 X144.355 Y118.9 E842.15279
G1 X145.77 Y118.9 E842.29398
G1 X192.599 Y165.729 E848.90206
G1 X192.599 Y164.315 E849.04315
G1 X147.184 Y118.9 E855.45169
G1 X148.598 Y118.9 E855.59278
G1 X192.599 Y162.901 E861.8018
G1 X192.599 Y161.486 E861.94299
G1 X150.012 Y118.9 E867.95241
G1 X151.426 Y118.9 E868.09349
G1 X192.599 Y160.072 E873.90338
G1 X192.599 Y158.658 E874.04447
G1 X152.841 Y118.9 E879.65475
G1 X154.255 Y118.9 E879.79584
G1 X192.599 Y157.244 E885.20659
G1 X192.599 Y155.83 E885.34768
G1 X155.669 Y118.9 E890.55891
G1 X157.083 Y118.9 E890.69999
G1 X192.599 Y154.415 E895.71162
G1 X192.599 Y153.001 E895.85271
G1 X158.497 Y118.9 E900.6648
G1 X159.912 Y118.9 E900.80598
G1 X192.599 Y151.587 E905.41847
G1 X192.599 Y150.173 E905.55956
G1 X161.326 Y118.9 E909.97252
G1 X162.74 Y118.9 E910.11361
G1 X192.599 Y148.759 E914.32704
G1 X192.599 Y147.344 E914.46823
G1 X164.154 Y118.9 E918.48205
G1 X165.569 Y118.9 E918.62324
G1 X192.599 Y145.93 E922.43747
G1 X192.599 Y144.516 E922.57856
G1 X166.983 Y118.9 E926.19325
G1 X168.397 Y118.9 E926.33434
G1 X192.599 Y143.102 E929.7495
G1 X192.599 Y141.687 E929.89069
G1 X169.811 Y118.9 E933.10626
G1 X171.225 Y118.9 E933.24735
G1 X192.599 Y140.273 E936.26338
G1 X192.599 Y138.859 E936.40447
G1 X172.64 Y118.9 E939.2209
G1 X174.054 Y118.9 E939.36199
G1 X192.599 Y137.445 E941.97889
G1 X192.599 Y136.031 E942.11998
G1 X175.468 Y118.9 E944.53735
G1 X176.882 Y118.9 E944.67843
G1 X192.599 Y134.616 E946.8962
G1 X192.599 Y133.202 E947.03729
G1 X178.296 Y118.9 E949.05553
G1 X179.711 Y118.9 E949.19672
G1 X192.599 Y131.788 E951.01535
G1 X192.599 Y130.374 E951.15644
G1 X181.125 Y118.9 E952.77555
G1 X182.539 Y118.9 E952.91664
G1 X192.599 Y128.96 E954.33621
G1 X192.598 Y128.499 E954.38221
G1 X192.588 Y128.091 E954.42294
